; generated by PrusaSlicer 2.3.1+x64 on 2023-08-30 at 13:48:16 UTC

; 

; external perimeters extrusion width = 0.45mm
; perimeters extrusion width = 0.45mm
; infill extrusion width = 0.45mm
; solid infill extrusion width = 0.45mm
; top infill extrusion width = 0.40mm
; first layer extrusion width = 0.42mm

M73 P0 R121
M73 Q0 S121
M201 X1000 Y1000 Z200 E5000 ; sets maximum accelerations, mm/sec^2
M203 X200 Y200 Z12 E120 ; sets maximum feedrates, mm/sec
M204 P1250 R1250 T1250 ; sets acceleration (P, T) and retract acceleration (R), mm/sec^2
M205 X8.00 Y8.00 Z0.40 E4.50 ; sets the jerk limits, mm/sec
M205 S0 T0 ; sets the minimum extruding and travel feed rate, mm/sec
M107
;TYPE:Custom
M862.3 P "MK3S" ; printer model check
M862.1 P0.4 ; nozzle diameter check
M115 U3.9.3 ; tell printer latest fw version
G90 ; use absolute coordinates
M83 ; extruder relative mode
M104 S160 ; set initial no ooze extruder temp
M140 S85 ; set bed temp
M190 S85 ; wait for bed temp
M109 S160 ; wait for initial no ooze extruder temp
G28 W ; home all without mesh bed level
G80 ; mesh bed leveling
G1 Y-3.0 F1000.0 ; go outside print area
M104 S240 ; set final extruder temp
M109 S240 ; wait for final extruder temp
G92 E0.0
G1 X60.0 E9.0 F1000.0 ; intro line
G1 X100.0 E12.5 F1000.0 ; intro line
G92 E0.0
M221 S95

; Don't change E values below. Excessive value can damage the printer.
M907 E430 ; set extruder motor current
G21 ; set units to millimeters
G90 ; use absolute coordinates
M83 ; use relative distances for extrusion
M900 K0.08 ; Filament gcode LA 1.5
M900 K45 ; Filament gcode LA 1.0
;LAYER_CHANGE
;Z:0.26
;HEIGHT:0.26
;BEFORE_LAYER_CHANGE
G92 E0.0
;0.26


G1 E-1.40000 F2100.000
G1 Z0.200 F2700.000
G1 Z0.260
;AFTER_LAYER_CHANGE
;0.26
; printing object Body1.stl id:1 copy 0
G1 Z0.460
G1 X36.249 Y32.664
G1 Z0.260
G1 E1.40000 F2100.000
M204 S800
;TYPE:External perimeter
;WIDTH:0.42
G1 F900.000
G1 X36.908 Y32.119 E0.03368
G1 X37.683 Y31.755 E0.03368
G1 X38.523 Y31.594 E0.03368
G1 X39.377 Y31.648 E0.03368
G1 X40.191 Y31.912 E0.03368
G1 X40.913 Y32.371 E0.03368
G1 X41.499 Y32.995 E0.03368
G1 X41.911 Y33.744 E0.03368
G1 X42.124 Y34.573 E0.03368
G1 X42.124 Y35.429 E0.03368
G1 X41.911 Y36.257 E0.03368
G1 X41.499 Y37.007 E0.03368
G1 X40.913 Y37.631 E0.03368
G1 X40.573 Y37.847 E0.01588
G1 X40.191 Y38.089 E0.01780
G1 X39.377 Y38.354 E0.03368
G1 X38.523 Y38.407 E0.03369
G1 X37.679 Y38.245 E0.03383
G1 X36.910 Y37.849 E0.03405
G1 X36.333 Y37.238 E0.03308
G1 X35.881 Y36.588 E0.03119
G1 X35.678 Y36.243 E0.01573
G1 X35.469 Y35.858 E0.01727
G1 X35.325 Y35.005 E0.03403
G1 X35.431 Y34.152 E0.03385
G1 X35.746 Y33.357 E0.03369
G1 X36.214 Y32.713 E0.03132
M204 S1000
G1 X36.134 Y32.281 F2700.000
;WIPE_START
G1 F2160.000
G1 X36.908 Y32.119 E-0.84402
G1 X37.385 Y31.895 E-0.48598
;WIPE_END
G1 E-0.07000 F2100.000
G1 Z0.460 F2700.000
G1 X28.607 Y103.795
G1 Z0.260
G1 E1.40000 F2100.000
M204 S800
;TYPE:Perimeter
G1 F900.000
G1 X30.026 Y103.951 E0.05619
G1 X31.407 Y104.312 E0.05619
G1 X32.720 Y104.870 E0.05619
G1 X33.939 Y105.614 E0.05619
G1 X35.036 Y106.527 E0.05619
G1 X35.988 Y107.590 E0.05619
G1 X36.776 Y108.780 E0.05619
G1 X37.381 Y110.073 E0.05619
G1 X37.793 Y111.439 E0.05619
G1 X38.000 Y112.851 E0.05619
G1 X38.000 Y114.279 E0.05619
G1 X37.793 Y115.691 E0.05619
G1 X37.381 Y117.057 E0.05619
G1 X36.776 Y118.350 E0.05619
G1 X35.988 Y119.540 E0.05619
G1 X35.036 Y120.603 E0.05619
G1 X33.939 Y121.516 E0.05619
G1 X32.720 Y122.259 E0.05619
G1 X31.407 Y122.818 E0.05619
G1 X30.026 Y123.179 E0.05619
G1 X28.607 Y123.335 E0.05619
G1 X27.181 Y123.283 E0.05619
G1 X25.777 Y123.023 E0.05619
G1 X24.427 Y122.562 E0.05619
G1 X23.157 Y121.910 E0.05619
G1 X21.997 Y121.079 E0.05619
G1 X20.969 Y120.089 E0.05619
G1 X20.097 Y118.959 E0.05619
G1 X19.398 Y117.715 E0.05619
G1 X18.888 Y116.381 E0.05619
G1 X18.578 Y114.988 E0.05619
G1 X18.474 Y113.565 E0.05619
G1 X18.578 Y112.141 E0.05619
G1 X18.888 Y110.748 E0.05619
G1 X19.398 Y109.415 E0.05619
G1 X20.097 Y108.171 E0.05619
G1 X20.969 Y107.041 E0.05619
G1 X21.997 Y106.050 E0.05619
G1 X23.157 Y105.220 E0.05619
G1 X24.427 Y104.567 E0.05619
G1 X25.777 Y104.107 E0.05619
G1 X27.181 Y103.847 E0.05619
G1 X28.547 Y103.797 E0.05383
M204 S1000
G1 X28.561 Y104.161 F2700.000
M204 S800
;TYPE:External perimeter
G1 F900.000
G1 X29.960 Y104.310 E0.05539
G1 X31.289 Y104.658 E0.05409
G1 X32.553 Y105.195 E0.05409
G1 X33.726 Y105.911 E0.05409
G1 X34.782 Y106.790 E0.05409
G1 X35.699 Y107.813 E0.05409
G1 X36.457 Y108.959 E0.05409
G1 X37.040 Y110.203 E0.05409
G1 X37.436 Y111.519 E0.05409
G1 X37.636 Y112.878 E0.05409
G1 X37.636 Y114.252 E0.05409
G1 X37.504 Y115.148 E0.03567
G1 X37.436 Y115.611 E0.01842
G1 X37.040 Y116.927 E0.05409
G1 X36.457 Y118.171 E0.05409
G1 X35.699 Y119.317 E0.05409
G1 X35.094 Y119.991 E0.03567
G1 X34.782 Y120.340 E0.01842
G1 X33.726 Y121.219 E0.05409
G1 X32.553 Y121.935 E0.05409
G1 X31.289 Y122.472 E0.05409
G1 X30.412 Y122.701 E0.03567
G1 X29.960 Y122.819 E0.01842
G1 X28.594 Y122.970 E0.05409
G1 X27.221 Y122.920 E0.05409
G1 X25.870 Y122.670 E0.05409
G1 X24.569 Y122.226 E0.05409
G1 X23.348 Y121.598 E0.05409
G1 X22.230 Y120.799 E0.05409
G1 X21.241 Y119.845 E0.05409
G1 X20.401 Y118.758 E0.05409
G1 X19.729 Y117.560 E0.05409
G1 X19.238 Y116.276 E0.05409
G1 X18.939 Y114.935 E0.05409
G1 X18.839 Y113.565 E0.05409
G1 X18.939 Y112.195 E0.05409
G1 X19.238 Y110.854 E0.05409
G1 X19.729 Y109.570 E0.05409
G1 X20.401 Y108.372 E0.05409
G1 X21.241 Y107.285 E0.05409
G1 X22.230 Y106.331 E0.05409
G1 X23.348 Y105.532 E0.05409
G1 X24.569 Y104.903 E0.05409
G1 X25.870 Y104.460 E0.05409
G1 X27.221 Y104.210 E0.05409
G1 X28.501 Y104.163 E0.05042
M204 S1000
G1 X28.772 Y103.822 F2700.000
;WIPE_START
G1 F2160.000
G1 X29.933 Y104.308 E-1.33000
;WIPE_END
G1 E-0.07000 F2100.000
G1 Z0.460 F2700.000
G1 X28.607 Y99.635
G1 Z0.260
G1 E1.40000 F2100.000
M204 S800
;TYPE:Perimeter
G1 F900.000
G1 X27.181 Y99.583 E0.05619
G1 X25.777 Y99.323 E0.05619
G1 X24.427 Y98.862 E0.05619
G1 X23.157 Y98.210 E0.05619
G1 X21.997 Y97.379 E0.05619
G1 X20.969 Y96.389 E0.05619
G1 X20.097 Y95.259 E0.05619
G1 X19.398 Y94.015 E0.05619
G1 X18.888 Y92.681 E0.05619
G1 X18.578 Y91.288 E0.05619
G1 X18.474 Y89.865 E0.05619
G1 X18.578 Y88.441 E0.05619
G1 X18.888 Y87.048 E0.05619
G1 X19.398 Y85.715 E0.05619
G1 X20.097 Y84.471 E0.05619
G1 X20.969 Y83.341 E0.05619
G1 X21.997 Y82.350 E0.05619
G1 X23.157 Y81.520 E0.05619
G1 X24.427 Y80.867 E0.05619
G1 X25.777 Y80.407 E0.05619
G1 X27.181 Y80.147 E0.05619
G1 X28.607 Y80.095 E0.05619
G1 X30.026 Y80.251 E0.05619
G1 X31.407 Y80.612 E0.05619
G1 X32.720 Y81.170 E0.05619
G1 X33.939 Y81.914 E0.05619
G1 X35.036 Y82.827 E0.05619
G1 X35.988 Y83.890 E0.05619
G1 X36.776 Y85.080 E0.05619
G1 X37.381 Y86.373 E0.05619
G1 X37.793 Y87.739 E0.05619
G1 X38.000 Y89.151 E0.05619
G1 X38.000 Y90.579 E0.05619
G1 X37.793 Y91.991 E0.05619
G1 X37.381 Y93.357 E0.05619
G1 X36.776 Y94.650 E0.05619
G1 X35.988 Y95.840 E0.05619
G1 X35.036 Y96.903 E0.05619
G1 X33.939 Y97.816 E0.05619
G1 X32.720 Y98.559 E0.05619
G1 X31.407 Y99.118 E0.05619
G1 X30.026 Y99.479 E0.05619
G1 X28.667 Y99.628 E0.05383
M204 S1000
G1 X28.627 Y99.266 F2700.000
M204 S800
;TYPE:External perimeter
G1 F900.000
G1 X27.221 Y99.220 E0.05539
G1 X25.870 Y98.970 E0.05409
G1 X24.569 Y98.526 E0.05409
G1 X23.348 Y97.898 E0.05409
G1 X22.230 Y97.099 E0.05409
G1 X21.241 Y96.145 E0.05409
G1 X20.401 Y95.058 E0.05409
G1 X19.729 Y93.860 E0.05409
G1 X19.238 Y92.576 E0.05409
G1 X18.939 Y91.235 E0.05409
G1 X18.839 Y89.865 E0.05409
G1 X18.939 Y88.495 E0.05409
G1 X19.238 Y87.154 E0.05409
G1 X19.729 Y85.870 E0.05409
G1 X20.401 Y84.672 E0.05409
G1 X21.241 Y83.585 E0.05409
G1 X22.230 Y82.631 E0.05409
G1 X23.348 Y81.832 E0.05409
G1 X24.569 Y81.203 E0.05409
G1 X25.870 Y80.760 E0.05409
G1 X27.221 Y80.510 E0.05409
G1 X28.594 Y80.460 E0.05409
G1 X29.960 Y80.610 E0.05409
G1 X31.289 Y80.958 E0.05409
G1 X32.553 Y81.495 E0.05409
G1 X33.726 Y82.211 E0.05409
G1 X34.782 Y83.090 E0.05409
G1 X35.699 Y84.113 E0.05409
G1 X36.457 Y85.259 E0.05409
G1 X37.040 Y86.503 E0.05409
G1 X37.403 Y87.708 E0.04955
G1 X37.436 Y87.819 E0.00454
G1 X37.636 Y89.178 E0.05409
G1 X37.636 Y90.552 E0.05409
G1 X37.436 Y91.911 E0.05409
G1 X37.040 Y93.227 E0.05409
G1 X36.457 Y94.471 E0.05409
G1 X35.699 Y95.617 E0.05409
G1 X34.782 Y96.640 E0.05409
G1 X33.726 Y97.519 E0.05409
G1 X32.553 Y98.235 E0.05409
G1 X31.289 Y98.772 E0.05409
G1 X29.960 Y99.119 E0.05409
G1 X28.687 Y99.260 E0.05042
M204 S1000
G1 X28.441 Y99.620 F2700.000
;WIPE_START
G1 F2160.000
G1 X27.247 Y99.220 E-1.33000
;WIPE_END
G1 E-0.07000 F2100.000
G1 Z0.460 F2700.000
G1 X28.607 Y75.935
G1 Z0.260
G1 E1.40000 F2100.000
M204 S800
;TYPE:Perimeter
G1 F900.000
G1 X27.181 Y75.883 E0.05619
G1 X25.777 Y75.623 E0.05619
G1 X24.427 Y75.162 E0.05619
G1 X23.157 Y74.510 E0.05619
G1 X21.997 Y73.679 E0.05619
G1 X20.969 Y72.689 E0.05619
G1 X20.097 Y71.559 E0.05619
G1 X19.398 Y70.315 E0.05619
G1 X18.888 Y68.981 E0.05619
G1 X18.578 Y67.588 E0.05619
G1 X18.474 Y66.165 E0.05619
G1 X18.578 Y64.741 E0.05619
G1 X18.888 Y63.348 E0.05619
G1 X19.398 Y62.015 E0.05619
G1 X20.097 Y60.771 E0.05619
G1 X20.969 Y59.641 E0.05619
G1 X21.997 Y58.650 E0.05619
G1 X23.157 Y57.820 E0.05619
G1 X24.427 Y57.167 E0.05619
G1 X25.777 Y56.707 E0.05619
G1 X27.181 Y56.447 E0.05619
G1 X28.607 Y56.395 E0.05619
G1 X30.026 Y56.551 E0.05619
G1 X31.407 Y56.912 E0.05619
G1 X32.720 Y57.470 E0.05619
G1 X33.939 Y58.214 E0.05619
G1 X35.036 Y59.127 E0.05619
G1 X35.988 Y60.190 E0.05619
G1 X36.776 Y61.380 E0.05619
G1 X37.381 Y62.673 E0.05619
G1 X37.793 Y64.039 E0.05619
G1 X38.000 Y65.451 E0.05619
G1 X38.000 Y66.879 E0.05619
G1 X37.813 Y68.150 E0.05060
G1 X37.793 Y68.291 E0.00559
G1 X37.381 Y69.657 E0.05619
G1 X36.776 Y70.950 E0.05619
G1 X35.988 Y72.140 E0.05619
G1 X35.036 Y73.203 E0.05619
G1 X33.939 Y74.116 E0.05619
G1 X32.720 Y74.859 E0.05619
G1 X31.407 Y75.418 E0.05619
G1 X30.026 Y75.779 E0.05619
G1 X28.667 Y75.928 E0.05383
M204 S1000
G1 X28.627 Y75.566 F2700.000
M204 S800
;TYPE:External perimeter
G1 F900.000
G1 X27.221 Y75.520 E0.05539
G1 X25.870 Y75.270 E0.05409
G1 X24.569 Y74.826 E0.05409
G1 X23.348 Y74.198 E0.05409
G1 X22.230 Y73.399 E0.05409
G1 X21.241 Y72.445 E0.05409
G1 X20.401 Y71.358 E0.05409
G1 X19.729 Y70.160 E0.05409
G1 X19.238 Y68.876 E0.05409
G1 X18.939 Y67.535 E0.05409
G1 X18.839 Y66.165 E0.05409
G1 X18.939 Y64.795 E0.05409
G1 X19.238 Y63.454 E0.05409
G1 X19.729 Y62.170 E0.05409
G1 X20.401 Y60.972 E0.05409
G1 X21.241 Y59.885 E0.05409
G1 X22.230 Y58.931 E0.05409
G1 X23.348 Y58.132 E0.05409
G1 X24.569 Y57.503 E0.05409
G1 X25.870 Y57.060 E0.05409
G1 X27.221 Y56.810 E0.05409
G1 X28.594 Y56.760 E0.05409
G1 X29.960 Y56.910 E0.05409
G1 X31.289 Y57.258 E0.05409
G1 X32.553 Y57.795 E0.05409
G1 X33.726 Y58.511 E0.05409
G1 X34.782 Y59.390 E0.05409
G1 X35.699 Y60.413 E0.05409
G1 X36.457 Y61.559 E0.05409
G1 X37.040 Y62.803 E0.05409
G1 X37.436 Y64.119 E0.05409
G1 X37.636 Y65.478 E0.05409
G1 X37.636 Y66.852 E0.05409
G1 X37.453 Y68.097 E0.04955
G1 X37.436 Y68.211 E0.00454
G1 X37.040 Y69.527 E0.05409
G1 X36.457 Y70.771 E0.05409
G1 X35.699 Y71.917 E0.05409
G1 X34.782 Y72.940 E0.05409
G1 X33.726 Y73.819 E0.05409
G1 X32.553 Y74.535 E0.05409
G1 X31.289 Y75.072 E0.05409
G1 X29.960 Y75.419 E0.05409
G1 X28.687 Y75.560 E0.05041
M204 S1000
G1 X28.441 Y75.920 F2700.000
;WIPE_START
G1 F2160.000
G1 X27.247 Y75.520 E-1.33000
;WIPE_END
G1 E-0.07000 F2100.000
G1 Z0.460 F2700.000
G1 X34.359 Y33.917
G1 Z0.260
G1 E1.40000 F2100.000
M204 S800
;TYPE:Perimeter
G1 F900.000
G1 X33.054 Y33.121 E0.06020
G1 X31.643 Y32.521 E0.06039
G1 X30.482 Y32.218 E0.04724
G1 X35.223 Y32.218 E0.18667
G1 X34.781 Y32.826 E0.02961
G1 X34.372 Y33.859 E0.04375
M204 S1000
;WIPE_START
G1 F2160.000
G1 X33.116 Y33.155 E-1.33000
;WIPE_END
G1 E-0.07000 F2100.000
G1 Z0.460 F2700.000
G1 X26.039 Y32.218
G1 Z0.260
G1 E1.40000 F2100.000
M204 S800
G1 F900.000
G1 X25.593 Y32.300 E0.01786
G1 X24.141 Y32.795 E0.06039
G1 X22.777 Y33.497 E0.06039
G1 X21.529 Y34.389 E0.06039
G1 X20.425 Y35.454 E0.06039
G1 X19.488 Y36.668 E0.06039
G1 X18.737 Y38.005 E0.06039
G1 X18.676 Y38.165 E0.00672
G1 X18.676 Y32.218 E0.23414
G1 X25.979 Y32.218 E0.28750
M204 S1000
;WIPE_START
G1 F2160.000
G1 X25.593 Y32.300 E-0.36466
G1 X24.604 Y32.637 E-0.96534
;WIPE_END
G1 E-0.07000 F2100.000
G1 Z0.460 F2700.000
G1 X18.312 Y31.853
G1 Z0.260
G1 E1.40000 F2100.000
M204 S800
G1 F900.000
G1 X36.087 Y31.853 E0.69978
G1 X35.714 Y32.162 E0.01905
G1 X35.103 Y33.003 E0.04093
G1 X34.720 Y33.970 E0.04097
G1 X34.639 Y34.625 E0.02598
G1 X34.153 Y34.218 E0.02497
G1 X32.887 Y33.446 E0.05836
G1 X31.525 Y32.867 E0.05829
G1 X30.092 Y32.492 E0.05829
G1 X28.621 Y32.330 E0.05829
G1 X27.141 Y32.384 E0.05829
G1 X25.685 Y32.653 E0.05829
G1 X24.284 Y33.131 E0.05829
G1 X22.967 Y33.808 E0.05829
G1 X21.763 Y34.670 E0.05829
G1 X20.697 Y35.697 E0.05829
M73 P0 R120
G1 X19.792 Y36.869 E0.05829
G1 X19.068 Y38.160 E0.05829
G1 X18.539 Y39.543 E0.05829
G1 X18.312 Y40.562 E0.04109
G1 X18.312 Y31.913 E0.34048
M204 S1000
;WIPE_START
G1 F2160.000
G1 X19.752 Y31.908 E-1.33000
;WIPE_END
G1 E-0.07000 F2100.000
G1 Z0.460 F2700.000
G1 X60.824 Y123.004
M73 Q0 S120
G1 Z0.260
G1 E1.40000 F2100.000
M204 S800
G1 F900.000
G1 X61.845 Y122.810 E0.04093
G1 X62.883 Y122.875 E0.04093
G1 X63.871 Y123.196 E0.04093
G1 X64.749 Y123.753 E0.04093
G1 X65.461 Y124.511 E0.04093
G1 X65.962 Y125.422 E0.04093
G1 X66.220 Y126.429 E0.04093
G1 X66.220 Y127.469 E0.04093
G1 X65.962 Y128.476 E0.04093
G1 X65.461 Y129.387 E0.04093
G1 X64.749 Y130.145 E0.04093
G1 X63.871 Y130.702 E0.04093
G1 X62.883 Y131.023 E0.04093
G1 X61.845 Y131.088 E0.04093
G1 X60.824 Y130.893 E0.04093
G1 X59.883 Y130.451 E0.04093
G1 X59.082 Y129.788 E0.04093
G1 X58.471 Y128.947 E0.04093
G1 X58.088 Y127.980 E0.04093
G1 X57.958 Y126.949 E0.04093
G1 X58.088 Y125.917 E0.04093
G1 X58.471 Y124.951 E0.04093
G1 X59.082 Y124.110 E0.04093
G1 X59.883 Y123.447 E0.04093
G1 X60.769 Y123.030 E0.03857
M204 S1000
G1 X60.925 Y123.360 F2700.000
M204 S800
G1 F900.000
G1 X61.868 Y123.176 E0.03784
G1 X62.814 Y123.236 E0.03731
G1 X63.715 Y123.528 E0.03731
G1 X64.515 Y124.036 E0.03731
G1 X65.164 Y124.727 E0.03731
G1 X65.620 Y125.557 E0.03731
G1 X65.856 Y126.475 E0.03731
G1 X65.856 Y127.423 E0.03731
G1 X65.620 Y128.341 E0.03731
G1 X65.164 Y129.171 E0.03731
G1 X64.515 Y129.862 E0.03731
G1 X63.715 Y130.369 E0.03731
G1 X62.814 Y130.662 E0.03731
G1 X61.868 Y130.722 E0.03731
G1 X60.937 Y130.544 E0.03731
G1 X60.080 Y130.141 E0.03731
G1 X59.350 Y129.537 E0.03731
G1 X58.793 Y128.770 E0.03731
G1 X58.444 Y127.889 E0.03731
G1 X58.325 Y126.949 E0.03731
G1 X58.444 Y126.009 E0.03731
G1 X58.793 Y125.128 E0.03731
G1 X59.350 Y124.361 E0.03731
G1 X60.080 Y123.757 E0.03731
G1 X60.870 Y123.385 E0.03439
M204 S1000
G1 X61.025 Y123.715 F2700.000
M204 S800
;TYPE:External perimeter
G1 F900.000
G1 X61.891 Y123.542 E0.03475
G1 X62.745 Y123.596 E0.03368
G1 X63.559 Y123.860 E0.03368
G1 X64.281 Y124.319 E0.03368
G1 X64.867 Y124.943 E0.03368
G1 X65.279 Y125.692 E0.03368
G1 X65.492 Y126.521 E0.03368
G1 X65.492 Y127.377 E0.03368
G1 X65.279 Y128.205 E0.03368
G1 X64.867 Y128.955 E0.03368
G1 X64.281 Y129.579 E0.03368
G1 X63.559 Y130.037 E0.03368
G1 X62.745 Y130.302 E0.03368
G1 X61.891 Y130.355 E0.03368
G1 X61.051 Y130.195 E0.03368
G1 X60.276 Y129.831 E0.03368
G1 X59.617 Y129.285 E0.03368
G1 X59.114 Y128.593 E0.03368
G1 X58.799 Y127.798 E0.03368
G1 X58.692 Y126.949 E0.03368
G1 X58.799 Y126.100 E0.03368
G1 X59.114 Y125.305 E0.03368
G1 X59.617 Y124.612 E0.03368
G1 X60.276 Y124.067 E0.03368
G1 X60.971 Y123.740 E0.03022
M204 S1000
G1 X61.106 Y123.323 F2700.000
;WIPE_START
G1 F2160.000
G1 X61.891 Y123.542 E-0.86918
G1 X62.389 Y123.574 E-0.46082
;WIPE_END
G1 E-0.07000 F2100.000
G1 Z0.460 F2700.000
G1 X57.543 Y121.129
G1 Z0.260
G1 E1.40000 F2100.000
M204 S800
;TYPE:Perimeter
G1 F900.000
G1 X56.364 Y122.110 E0.06039
G1 X55.054 Y122.909 E0.06039
G1 X53.643 Y123.509 E0.06039
G1 X52.159 Y123.897 E0.06039
G1 X50.634 Y124.065 E0.06039
G1 X49.101 Y124.009 E0.06039
G1 X47.593 Y123.730 E0.06039
G1 X46.141 Y123.235 E0.06039
G1 X44.777 Y122.533 E0.06039
G1 X43.529 Y121.641 E0.06039
G1 X42.425 Y120.576 E0.06039
G1 X41.488 Y119.362 E0.06039
