; generated by PrusaSlicer 2.3.1+x64 on 2023-08-30 at 12:23:23 UTC

; 

; external perimeters extrusion width = 0.45mm
; perimeters extrusion width = 0.45mm
; infill extrusion width = 0.45mm
; solid infill extrusion width = 0.45mm
; top infill extrusion width = 0.40mm
; first layer extrusion width = 0.42mm

M73 P0 R174
M73 Q0 S174
M201 X1000 Y1000 Z200 E5000 ; sets maximum accelerations, mm/sec^2
M203 X200 Y200 Z12 E120 ; sets maximum feedrates, mm/sec
M204 P1250 R1250 T1250 ; sets acceleration (P, T) and retract acceleration (R), mm/sec^2
M205 X8.00 Y8.00 Z0.40 E4.50 ; sets the jerk limits, mm/sec
M205 S0 T0 ; sets the minimum extruding and travel feed rate, mm/sec
M107
;TYPE:Custom
M862.3 P "MK3S" ; printer model check
M862.1 P0.4 ; nozzle diameter check
M115 U3.9.3 ; tell printer latest fw version
G90 ; use absolute coordinates
M83 ; extruder relative mode
M104 S160 ; set initial no ooze extruder temp
M140 S85 ; set bed temp
M190 S85 ; wait for bed temp
M109 S160 ; wait for initial no ooze extruder temp
G28 W ; home all without mesh bed level
G80 ; mesh bed leveling
G1 Y-3.0 F1000.0 ; go outside print area
M104 S240 ; set final extruder temp
M109 S240 ; wait for final extruder temp
G92 E0.0
G1 X60.0 E9.0 F1000.0 ; intro line
G1 X100.0 E12.5 F1000.0 ; intro line
G92 E0.0
M221 S95

; Don't change E values below. Excessive value can damage the printer.
M907 E430 ; set extruder motor current
G21 ; set units to millimeters
G90 ; use absolute coordinates
M83 ; use relative distances for extrusion
M900 K0.08 ; Filament gcode LA 1.5
M900 K45 ; Filament gcode LA 1.0
;LAYER_CHANGE
;Z:0.26
;HEIGHT:0.26
;BEFORE_LAYER_CHANGE
G92 E0.0
;0.26


G1 E-1.40000 F2100.000
G1 Z0.200 F2700.000
G1 Z0.260
;AFTER_LAYER_CHANGE
;0.26
; printing object Body1.stl id:0 copy 1
G1 Z0.460
G1 X50.808 Y150.764
M73 P0 R173
G1 Z0.260
G1 E1.40000 F2100.000
M204 S800
;TYPE:Perimeter
;WIDTH:0.42
G1 F900.000
G1 X52.350 Y150.450 E0.06194
G1 X53.922 Y150.386 E0.06194
G1 X55.484 Y150.576 E0.06194
G1 X56.995 Y151.014 E0.06194
G1 X58.416 Y151.688 E0.06194
G1 X59.711 Y152.582 E0.06194
G1 X60.846 Y153.672 E0.06194
G1 X61.791 Y154.930 E0.06194
G1 X62.523 Y156.323 E0.06194
G1 X63.021 Y157.815 E0.06194
G1 X63.273 Y159.368 E0.06194
G1 X63.273 Y160.942 E0.06194
G1 X63.021 Y162.495 E0.06194
G1 X62.523 Y163.987 E0.06194
G1 X61.791 Y165.380 E0.06194
G1 X60.846 Y166.638 E0.06194
G1 X59.711 Y167.728 E0.06194
G1 X58.416 Y168.622 E0.06194
M73 Q0 S173
G1 X56.995 Y169.296 E0.06194
G1 X55.484 Y169.734 E0.06194
G1 X53.922 Y169.924 E0.06194
G1 X52.350 Y169.861 E0.06194
G1 X50.808 Y169.546 E0.06194
G1 X49.337 Y168.988 E0.06194
G1 X47.974 Y168.201 E0.06194
G1 X46.756 Y167.206 E0.06194
G1 X45.712 Y166.028 E0.06194
G1 X44.871 Y164.699 E0.06194
G1 X44.255 Y163.251 E0.06194
G1 X43.878 Y161.723 E0.06194
G1 X43.751 Y160.155 E0.06194
G1 X43.878 Y158.587 E0.06194
G1 X44.255 Y157.059 E0.06194
G1 X44.871 Y155.612 E0.06194
G1 X45.712 Y154.282 E0.06194
G1 X46.756 Y153.104 E0.06194
G1 X47.974 Y152.109 E0.06194
G1 X49.337 Y151.322 E0.06194
G1 X50.752 Y150.786 E0.05958
M204 S1000
G1 X50.881 Y151.126 F2700.000
M204 S800
;TYPE:External perimeter
G1 F900.000
G1 X52.394 Y150.812 E0.06082
G1 X53.907 Y150.751 E0.05963
G1 X55.411 Y150.934 E0.05963
G1 X56.865 Y151.355 E0.05963
G1 X58.234 Y152.005 E0.05963
G1 X59.480 Y152.865 E0.05963
G1 X60.573 Y153.914 E0.05963
G1 X61.482 Y155.125 E0.05963
G1 X62.186 Y156.466 E0.05963
G1 X62.666 Y157.903 E0.05963
G1 X62.909 Y159.398 E0.05963
G1 X62.909 Y160.912 E0.05963
G1 X62.666 Y162.407 E0.05963
G1 X62.186 Y163.844 E0.05963
G1 X61.482 Y165.185 E0.05963
G1 X60.573 Y166.396 E0.05963
G1 X59.480 Y167.445 E0.05963
G1 X58.234 Y168.306 E0.05963
G1 X56.865 Y168.955 E0.05963
G1 X55.411 Y169.376 E0.05963
G1 X53.907 Y169.559 E0.05963
G1 X52.394 Y169.498 E0.05963
G1 X50.910 Y169.195 E0.05963
G1 X49.494 Y168.658 E0.05963
G1 X48.182 Y167.900 E0.05963
G1 X47.009 Y166.943 E0.05963
G1 X46.004 Y165.809 E0.05963
G1 X45.195 Y164.529 E0.05963
G1 X44.601 Y163.135 E0.05963
G1 X44.239 Y161.665 E0.05963
G1 X44.117 Y160.155 E0.05963
G1 X44.239 Y158.645 E0.05963
G1 X44.601 Y157.175 E0.05963
G1 X45.195 Y155.781 E0.05963
G1 X46.004 Y154.501 E0.05963
G1 X47.009 Y153.368 E0.05963
G1 X48.182 Y152.410 E0.05963
G1 X49.494 Y151.652 E0.05963
G1 X50.825 Y151.147 E0.05606
M204 S1000
G1 X50.976 Y150.738 F2700.000
;WIPE_START
G1 F2160.000
G1 X52.233 Y150.847 E-1.33000
;WIPE_END
G1 E-0.07000 F2100.000
G1 Z0.460 F2700.000
G1 X52.350 Y174.150
G1 Z0.260
G1 E1.40000 F2100.000
M204 S800
;TYPE:Perimeter
G1 F900.000
G1 X53.922 Y174.086 E0.06194
G1 X55.484 Y174.276 E0.06194
G1 X56.995 Y174.714 E0.06194
G1 X58.416 Y175.388 E0.06194
G1 X59.711 Y176.282 E0.06194
G1 X60.846 Y177.372 E0.06194
G1 X61.791 Y178.630 E0.06194
G1 X62.523 Y180.023 E0.06194
G1 X63.021 Y181.515 E0.06194
G1 X63.273 Y183.068 E0.06194
G1 X63.273 Y184.642 E0.06194
G1 X63.021 Y186.195 E0.06194
G1 X62.523 Y187.687 E0.06194
G1 X61.791 Y189.080 E0.06194
G1 X60.846 Y190.338 E0.06194
G1 X59.711 Y191.428 E0.06194
G1 X58.416 Y192.322 E0.06194
G1 X56.995 Y192.996 E0.06194
G1 X55.484 Y193.434 E0.06194
G1 X53.922 Y193.624 E0.06194
G1 X52.350 Y193.561 E0.06194
G1 X50.808 Y193.246 E0.06194
G1 X49.337 Y192.688 E0.06194
G1 X47.974 Y191.901 E0.06194
G1 X46.756 Y190.906 E0.06194
G1 X45.712 Y189.728 E0.06194
G1 X44.871 Y188.399 E0.06194
G1 X44.255 Y186.951 E0.06194
G1 X43.878 Y185.423 E0.06194
G1 X43.751 Y183.855 E0.06194
G1 X43.878 Y182.287 E0.06194
G1 X44.255 Y180.759 E0.06194
G1 X44.871 Y179.312 E0.06194
G1 X45.712 Y177.982 E0.06194
G1 X46.756 Y176.804 E0.06194
G1 X47.974 Y175.809 E0.06194
G1 X49.337 Y175.022 E0.06194
G1 X50.808 Y174.464 E0.06194
G1 X52.291 Y174.162 E0.05958
M204 S1000
G1 X52.364 Y174.518 F2700.000
M204 S800
;TYPE:External perimeter
G1 F900.000
G1 X53.907 Y174.451 E0.06082
G1 X55.411 Y174.634 E0.05963
G1 X56.865 Y175.055 E0.05963
G1 X58.234 Y175.705 E0.05963
G1 X59.480 Y176.565 E0.05963
G1 X60.573 Y177.614 E0.05963
G1 X61.482 Y178.825 E0.05963
G1 X62.186 Y180.166 E0.05963
G1 X62.666 Y181.603 E0.05963
G1 X62.909 Y183.098 E0.05963
G1 X62.909 Y184.612 E0.05963
G1 X62.666 Y186.107 E0.05963
G1 X62.186 Y187.544 E0.05963
G1 X61.482 Y188.885 E0.05963
G1 X60.573 Y190.096 E0.05963
G1 X59.480 Y191.145 E0.05963
G1 X58.234 Y192.006 E0.05963
G1 X56.865 Y192.655 E0.05963
G1 X55.411 Y193.076 E0.05963
G1 X53.907 Y193.259 E0.05963
G1 X52.394 Y193.198 E0.05963
G1 X50.910 Y192.895 E0.05963
G1 X49.494 Y192.358 E0.05963
G1 X48.182 Y191.600 E0.05963
G1 X47.009 Y190.643 E0.05963
G1 X46.004 Y189.509 E0.05963
G1 X45.195 Y188.229 E0.05963
G1 X44.651 Y186.952 E0.05462
G1 X44.601 Y186.835 E0.00501
G1 X44.239 Y185.365 E0.05963
G1 X44.117 Y183.855 E0.05963
G1 X44.239 Y182.345 E0.05963
G1 X44.601 Y180.875 E0.05963
G1 X45.195 Y179.481 E0.05963
G1 X46.004 Y178.201 E0.05963
G1 X47.009 Y177.068 E0.05963
G1 X48.182 Y176.110 E0.05963
G1 X49.494 Y175.352 E0.05963
G1 X50.910 Y174.815 E0.05963
G1 X52.305 Y174.530 E0.05606
M204 S1000
G1 X52.520 Y174.150 F2700.000
;WIPE_START
G1 F2160.000
G1 X53.743 Y174.459 E-1.33000
;WIPE_END
G1 E-0.07000 F2100.000
G1 Z0.460 F2700.000
G1 X53.922 Y146.224
G1 Z0.260
G1 E1.40000 F2100.000
M204 S800
;TYPE:Perimeter
G1 F900.000
G1 X52.350 Y146.161 E0.06194
G1 X50.808 Y145.846 E0.06194
G1 X49.337 Y145.288 E0.06194
G1 X47.974 Y144.501 E0.06194
G1 X46.756 Y143.506 E0.06194
G1 X45.712 Y142.328 E0.06194
G1 X44.871 Y140.999 E0.06194
G1 X44.255 Y139.551 E0.06194
G1 X43.878 Y138.023 E0.06194
G1 X43.751 Y136.455 E0.06194
G1 X43.878 Y134.887 E0.06194
G1 X44.255 Y133.359 E0.06194
G1 X44.871 Y131.912 E0.06194
G1 X45.712 Y130.582 E0.06194
G1 X46.756 Y129.404 E0.06194
G1 X47.974 Y128.409 E0.06194
G1 X49.337 Y127.622 E0.06194
G1 X50.808 Y127.064 E0.06194
G1 X52.350 Y126.750 E0.06194
G1 X53.922 Y126.686 E0.06194
G1 X55.484 Y126.876 E0.06194
G1 X56.995 Y127.314 E0.06194
G1 X58.416 Y127.988 E0.06194
G1 X59.711 Y128.882 E0.06194
G1 X60.846 Y129.972 E0.06194
G1 X61.791 Y131.230 E0.06194
G1 X62.523 Y132.623 E0.06194
G1 X63.021 Y134.115 E0.06194
G1 X63.273 Y135.668 E0.06194
G1 X63.273 Y137.242 E0.06194
G1 X63.021 Y138.795 E0.06194
G1 X62.523 Y140.287 E0.06194
G1 X61.864 Y141.542 E0.05578
G1 X61.791 Y141.680 E0.00617
G1 X60.846 Y142.938 E0.06194
G1 X59.711 Y144.028 E0.06194
G1 X58.416 Y144.922 E0.06194
G1 X56.995 Y145.596 E0.06194
G1 X55.484 Y146.034 E0.06194
G1 X53.981 Y146.217 E0.05958
M204 S1000
G1 X53.937 Y145.855 F2700.000
M204 S800
;TYPE:External perimeter
G1 F900.000
G1 X52.394 Y145.798 E0.06082
G1 X50.910 Y145.495 E0.05963
G1 X49.494 Y144.958 E0.05963
G1 X48.182 Y144.200 E0.05963
G1 X47.009 Y143.243 E0.05963
G1 X46.004 Y142.109 E0.05963
G1 X45.195 Y140.829 E0.05963
G1 X44.601 Y139.435 E0.05963
G1 X44.239 Y137.965 E0.05963
G1 X44.117 Y136.455 E0.05963
G1 X44.239 Y134.945 E0.05963
G1 X44.601 Y133.475 E0.05963
G1 X45.195 Y132.081 E0.05963
G1 X46.004 Y130.801 E0.05963
G1 X47.009 Y129.668 E0.05963
G1 X48.182 Y128.710 E0.05963
G1 X49.494 Y127.952 E0.05963
G1 X50.910 Y127.415 E0.05963
G1 X52.394 Y127.112 E0.05963
G1 X53.907 Y127.051 E0.05963
G1 X55.411 Y127.234 E0.05963
G1 X56.865 Y127.655 E0.05963
G1 X58.234 Y128.305 E0.05963
G1 X59.480 Y129.165 E0.05963
G1 X60.573 Y130.214 E0.05963
G1 X61.482 Y131.425 E0.05963
G1 X62.186 Y132.766 E0.05963
G1 X62.666 Y134.203 E0.05963
G1 X62.909 Y135.698 E0.05963
G1 X62.909 Y137.212 E0.05963
G1 X62.666 Y138.707 E0.05963
G1 X62.186 Y140.144 E0.05963
G1 X61.482 Y141.485 E0.05963
G1 X60.573 Y142.696 E0.05963
G1 X59.480 Y143.745 E0.05963
G1 X58.234 Y144.606 E0.05963
G1 X56.865 Y145.255 E0.05963
G1 X55.411 Y145.676 E0.05963
G1 X53.997 Y145.848 E0.05606
M204 S1000
G1 X53.752 Y146.210 F2700.000
;WIPE_START
G1 F2160.000
G1 X52.558 Y145.803 E-1.33000
;WIPE_END
G1 E-0.07000 F2100.000
G1 Z0.460 F2700.000
G1 X197.752 Y136.455
G1 Z0.260
G1 E1.40000 F2100.000
M204 S800
;TYPE:Perimeter
G1 F900.000
G1 X197.878 Y134.887 E0.06194
G1 X198.255 Y133.359 E0.06194
G1 X198.810 Y132.056 E0.05578
G1 X198.871 Y131.912 E0.00617
G1 X199.712 Y130.582 E0.06194
G1 X200.756 Y129.404 E0.06194
G1 X201.975 Y128.409 E0.06194
G1 X203.337 Y127.622 E0.06194
G1 X204.808 Y127.064 E0.06194
G1 X206.350 Y126.750 E0.06194
G1 X207.922 Y126.686 E0.06194
G1 X209.484 Y126.876 E0.06194
G1 X210.995 Y127.314 E0.06194
G1 X212.417 Y127.988 E0.06194
G1 X213.712 Y128.882 E0.06194
G1 X214.846 Y129.972 E0.06194
G1 X215.792 Y131.230 E0.06194
G1 X216.523 Y132.623 E0.06194
G1 X217.021 Y134.115 E0.06194
G1 X217.273 Y135.668 E0.06194
G1 X217.273 Y137.242 E0.06194
G1 X217.021 Y138.795 E0.06194
G1 X216.523 Y140.287 E0.06194
G1 X215.792 Y141.680 E0.06194
G1 X214.846 Y142.938 E0.06194
G1 X213.712 Y144.028 E0.06194
G1 X212.417 Y144.922 E0.06194
G1 X210.995 Y145.596 E0.06194
G1 X209.484 Y146.034 E0.06194
G1 X207.922 Y146.224 E0.06194
G1 X206.350 Y146.161 E0.06194
G1 X204.808 Y145.846 E0.06194
G1 X203.337 Y145.288 E0.06194
G1 X202.447 Y144.774 E0.04048
G1 X201.975 Y144.501 E0.02147
G1 X200.756 Y143.506 E0.06194
G1 X199.712 Y142.328 E0.06194
G1 X198.871 Y140.999 E0.06194
G1 X198.255 Y139.551 E0.06194
G1 X197.878 Y138.023 E0.06194
G1 X197.756 Y136.515 E0.05958
M204 S1000
G1 X198.119 Y136.486 F2700.000
M204 S800
;TYPE:External perimeter
G1 F900.000
G1 X198.239 Y134.945 E0.06082
G1 X198.601 Y133.475 E0.05963
G1 X199.195 Y132.081 E0.05963
G1 X200.005 Y130.801 E0.05963
G1 X201.009 Y129.668 E0.05963
G1 X202.182 Y128.710 E0.05963
G1 X203.494 Y127.952 E0.05963
G1 X204.910 Y127.415 E0.05963
G1 X206.394 Y127.112 E0.05963
G1 X207.907 Y127.051 E0.05963
G1 X209.411 Y127.234 E0.05963
G1 X210.866 Y127.655 E0.05963
G1 X212.234 Y128.305 E0.05963
G1 X213.480 Y129.165 E0.05963
G1 X214.573 Y130.214 E0.05963
G1 X215.483 Y131.425 E0.05963
G1 X216.187 Y132.766 E0.05963
G1 X216.666 Y134.203 E0.05963
G1 X216.909 Y135.698 E0.05963
G1 X216.909 Y137.212 E0.05963
G1 X216.666 Y138.707 E0.05963
G1 X216.187 Y140.144 E0.05963
G1 X215.483 Y141.485 E0.05963
G1 X214.573 Y142.696 E0.05963
G1 X213.480 Y143.745 E0.05963
G1 X212.234 Y144.606 E0.05963
G1 X210.866 Y145.255 E0.05963
G1 X209.411 Y145.676 E0.05963
G1 X207.907 Y145.859 E0.05963
G1 X206.394 Y145.798 E0.05963
G1 X204.910 Y145.495 E0.05963
G1 X203.494 Y144.958 E0.05963
G1 X202.629 Y144.458 E0.03932
G1 X202.182 Y144.200 E0.02031
G1 X201.009 Y143.243 E0.05963
G1 X200.005 Y142.109 E0.05963
G1 X199.195 Y140.829 E0.05963
G1 X198.601 Y139.435 E0.05963
G1 X198.239 Y137.965 E0.05963
G1 X198.124 Y136.545 E0.05606
M204 S1000
G1 X197.773 Y136.286 F2700.000
;WIPE_START
G1 F2160.000
G1 X198.227 Y135.109 E-1.33000
;WIPE_END
G1 E-0.07000 F2100.000
G1 Z0.460 F2700.000
G1 X128.100 Y178.434
G1 Z0.260
G1 E1.40000 F2100.000
M204 S800
;TYPE:Perimeter
G1 F900.000
G1 X128.859 Y179.880 E0.06426
G1 X129.376 Y181.428 E0.06426
G1 X129.637 Y183.039 E0.06426
G1 X129.637 Y184.671 E0.06426
G1 X129.376 Y186.282 E0.06426
G1 X128.859 Y187.830 E0.06426
G1 X128.100 Y189.276 E0.06426
G1 X127.120 Y190.581 E0.06426
G1 X125.942 Y191.711 E0.06426
G1 X124.599 Y192.638 E0.06426
G1 X123.125 Y193.338 E0.06426
G1 X121.557 Y193.792 E0.06426
G1 X119.937 Y193.989 E0.06426
G1 X118.306 Y193.923 E0.06426
G1 X116.706 Y193.597 E0.06426
G1 X115.180 Y193.018 E0.06426
G1 X113.767 Y192.202 E0.06426
G1 X112.502 Y191.170 E0.06426
G1 X111.420 Y189.948 E0.06426
G1 X110.548 Y188.568 E0.06426
G1 X109.908 Y187.067 E0.06426
G1 X109.517 Y185.482 E0.06426
G1 X109.386 Y183.855 E0.06426
G1 X109.517 Y182.228 E0.06426
G1 X109.908 Y180.643 E0.06426
G1 X110.548 Y179.142 E0.06426
G1 X111.420 Y177.762 E0.06426
G1 X112.502 Y176.541 E0.06426
G1 X113.767 Y175.508 E0.06426
G1 X115.180 Y174.692 E0.06426
G1 X116.706 Y174.113 E0.06426
G1 X118.306 Y173.787 E0.06426
G1 X119.937 Y173.721 E0.06426
G1 X121.557 Y173.918 E0.06426
G1 X123.125 Y174.372 E0.06426
G1 X124.599 Y175.072 E0.06426
G1 X125.942 Y175.999 E0.06426
G1 X127.120 Y177.130 E0.06426
G1 X128.064 Y178.387 E0.06190
M204 S1000
G1 X127.773 Y178.605 F2700.000
M204 S800
G1 F900.000
G1 X128.523 Y180.023 E0.06313
G1 X129.021 Y181.515 E0.06194
G1 X129.273 Y183.068 E0.06194
G1 X129.273 Y184.642 E0.06194
G1 X129.021 Y186.195 E0.06194
G1 X128.523 Y187.687 E0.06194
G1 X127.791 Y189.080 E0.06194
G1 X126.846 Y190.338 E0.06194
G1 X125.711 Y191.428 E0.06194
G1 X124.416 Y192.322 E0.06194
G1 X122.995 Y192.996 E0.06194
G1 X121.484 Y193.434 E0.06194
G1 X119.922 Y193.624 E0.06194
G1 X118.350 Y193.561 E0.06194
G1 X116.808 Y193.246 E0.06194
G1 X115.337 Y192.688 E0.06194
G1 X113.974 Y191.901 E0.06194
G1 X112.756 Y190.906 E0.06194
G1 X111.712 Y189.728 E0.06194
G1 X110.871 Y188.399 E0.06194
G1 X110.255 Y186.951 E0.06194
G1 X109.878 Y185.423 E0.06194
G1 X109.751 Y183.855 E0.06194
G1 X109.878 Y182.287 E0.06194
G1 X110.255 Y180.759 E0.06194
G1 X110.871 Y179.312 E0.06194
G1 X111.712 Y177.982 E0.06194
G1 X112.756 Y176.804 E0.06194
G1 X113.974 Y175.809 E0.06194
G1 X115.337 Y175.022 E0.06194
G1 X116.808 Y174.464 E0.06194
G1 X118.350 Y174.150 E0.06194
G1 X119.922 Y174.086 E0.06194
G1 X121.484 Y174.276 E0.06194
G1 X122.995 Y174.714 E0.06194
G1 X124.416 Y175.388 E0.06194
G1 X125.711 Y176.282 E0.06194
G1 X126.846 Y177.372 E0.06194
G1 X127.737 Y178.557 E0.05838
M204 S1000
G1 X127.446 Y178.776 F2700.000
M204 S800
;TYPE:External perimeter
G1 F900.000
G1 X128.186 Y180.166 E0.06201
G1 X128.666 Y181.603 E0.05963
G1 X128.909 Y183.098 E0.05963
G1 X128.909 Y184.612 E0.05963
G1 X128.666 Y186.107 E0.05963
G1 X128.186 Y187.544 E0.05963
G1 X127.482 Y188.885 E0.05963
G1 X126.573 Y190.096 E0.05963
G1 X125.480 Y191.145 E0.05963
G1 X124.234 Y192.006 E0.05963
G1 X122.865 Y192.655 E0.05963
G1 X121.411 Y193.076 E0.05963
G1 X119.907 Y193.259 E0.05963
G1 X118.394 Y193.198 E0.05963
G1 X116.910 Y192.895 E0.05963
G1 X115.494 Y192.358 E0.05963
G1 X114.182 Y191.600 E0.05963
G1 X113.009 Y190.643 E0.05963
G1 X112.004 Y189.509 E0.05963
G1 X111.195 Y188.229 E0.05963
G1 X110.601 Y186.835 E0.05963
G1 X110.239 Y185.365 E0.05963
G1 X110.117 Y183.855 E0.05963
G1 X110.239 Y182.345 E0.05963
G1 X110.601 Y180.875 E0.05963
G1 X111.195 Y179.481 E0.05963
G1 X112.004 Y178.201 E0.05963
G1 X113.009 Y177.068 E0.05963
G1 X114.182 Y176.110 E0.05963
G1 X115.494 Y175.352 E0.05963
G1 X116.910 Y174.815 E0.05963
G1 X118.394 Y174.512 E0.05963
G1 X119.907 Y174.451 E0.05963
