; generated by PrusaSlicer 2.3.1+x64 on 2023-08-30 at 12:44:41 UTC

; 

; external perimeters extrusion width = 0.45mm
; perimeters extrusion width = 0.45mm
; infill extrusion width = 0.45mm
; solid infill extrusion width = 0.45mm
; top infill extrusion width = 0.40mm
; first layer extrusion width = 0.42mm

M73 P0 R87
M73 Q0 S87
M201 X1000 Y1000 Z200 E5000 ; sets maximum accelerations, mm/sec^2
M203 X200 Y200 Z12 E120 ; sets maximum feedrates, mm/sec
M204 P1250 R1250 T1250 ; sets acceleration (P, T) and retract acceleration (R), mm/sec^2
M205 X8.00 Y8.00 Z0.40 E4.50 ; sets the jerk limits, mm/sec
M205 S0 T0 ; sets the minimum extruding and travel feed rate, mm/sec
M107
;TYPE:Custom
M862.3 P "MK3S" ; printer model check
M862.1 P0.4 ; nozzle diameter check
M115 U3.9.3 ; tell printer latest fw version
G90 ; use absolute coordinates
M83 ; extruder relative mode
M104 S160 ; set initial no ooze extruder temp
M140 S85 ; set bed temp
M190 S85 ; wait for bed temp
M109 S160 ; wait for initial no ooze extruder temp
G28 W ; home all without mesh bed level
G80 ; mesh bed leveling
G1 Y-3.0 F1000.0 ; go outside print area
M104 S240 ; set final extruder temp
M109 S240 ; wait for final extruder temp
G92 E0.0
G1 X60.0 E9.0 F1000.0 ; intro line
G1 X100.0 E12.5 F1000.0 ; intro line
G92 E0.0
M221 S95

; Don't change E values below. Excessive value can damage the printer.
M907 E430 ; set extruder motor current
G21 ; set units to millimeters
G90 ; use absolute coordinates
M83 ; use relative distances for extrusion
M900 K0.08 ; Filament gcode LA 1.5
M900 K45 ; Filament gcode LA 1.0
;LAYER_CHANGE
;Z:0.26
;HEIGHT:0.26
;BEFORE_LAYER_CHANGE
G92 E0.0
;0.26


G1 E-1.40000 F2100.000
G1 Z0.200 F2700.000
G1 Z0.260
;AFTER_LAYER_CHANGE
;0.26
; printing object Body1.stl id:0 copy 0
G1 Z0.460
G1 X139.361 Y110.745
G1 Z0.260
G1 E1.40000 F2100.000
M204 S800
;TYPE:Perimeter
;WIDTH:0.42
G1 F900.000
G1 X140.455 Y109.557 E0.06357
G1 X141.729 Y108.565 E0.06357
G1 X142.601 Y108.094 E0.03900
G1 X143.149 Y107.797 E0.02457
G1 X144.677 Y107.272 E0.06357
G1 X146.269 Y107.007 E0.06357
G1 X147.884 Y107.007 E0.06357
G1 X149.477 Y107.272 E0.06357
G1 X151.004 Y107.797 E0.06357
G1 X152.424 Y108.565 E0.06357
G1 X153.698 Y109.557 E0.06357
G1 X154.792 Y110.745 E0.06357
G1 X155.587 Y111.962 E0.05724
G1 X155.675 Y112.097 E0.00633
G1 X156.324 Y113.575 E0.06357
G1 X156.720 Y115.141 E0.06357
G1 X156.854 Y116.750 E0.06357
G1 X156.720 Y118.359 E0.06357
G1 X156.324 Y119.925 E0.06357
G1 X155.675 Y121.403 E0.06357
G1 X154.792 Y122.755 E0.06357
G1 X153.698 Y123.943 E0.06357
G1 X152.424 Y124.935 E0.06357
G1 X151.004 Y125.703 E0.06357
G1 X149.477 Y126.228 E0.06357
G1 X147.884 Y126.493 E0.06357
G1 X146.269 Y126.493 E0.06357
G1 X144.677 Y126.228 E0.06357
G1 X143.149 Y125.703 E0.06357
G1 X141.729 Y124.935 E0.06357
G1 X140.455 Y123.943 E0.06357
G1 X139.361 Y122.755 E0.06357
G1 X138.478 Y121.403 E0.06357
G1 X137.830 Y119.925 E0.06357
G1 X137.433 Y118.359 E0.06357
G1 X137.300 Y116.750 E0.06357
G1 X137.433 Y115.141 E0.06357
G1 X137.830 Y113.575 E0.06357
G1 X138.478 Y112.097 E0.06357
G1 X139.329 Y110.795 E0.06121
M204 S1000
G1 X139.634 Y110.994 F2700.000
M204 S800
;TYPE:External perimeter
G1 F900.000
G1 X140.703 Y109.826 E0.06235
G1 X141.929 Y108.871 E0.06119
G1 X143.296 Y108.131 E0.06119
G1 X144.766 Y107.627 E0.06119
G1 X146.300 Y107.371 E0.06119
G1 X147.854 Y107.371 E0.06119
G1 X149.387 Y107.627 E0.06119
G1 X150.857 Y108.131 E0.06119
G1 X152.224 Y108.871 E0.06119
G1 X153.451 Y109.826 E0.06119
G1 X154.504 Y110.969 E0.06119
G1 X155.282 Y112.161 E0.05605
G1 X155.354 Y112.271 E0.00514
G1 X155.978 Y113.694 E0.06119
G1 X156.360 Y115.201 E0.06119
G1 X156.488 Y116.750 E0.06119
G1 X156.360 Y118.299 E0.06119
G1 X155.978 Y119.806 E0.06119
G1 X155.354 Y121.229 E0.06119
G1 X154.504 Y122.531 E0.06119
G1 X153.451 Y123.674 E0.06119
G1 X152.224 Y124.629 E0.06119
G1 X150.857 Y125.369 E0.06119
G1 X149.387 Y125.873 E0.06119
G1 X147.854 Y126.129 E0.06119
G1 X146.300 Y126.129 E0.06119
G1 X144.766 Y125.873 E0.06119
G1 X143.296 Y125.369 E0.06119
G1 X141.929 Y124.629 E0.06119
G1 X140.703 Y123.674 E0.06119
G1 X139.650 Y122.531 E0.06119
G1 X138.800 Y121.229 E0.06119
G1 X138.175 Y119.806 E0.06119
G1 X137.794 Y118.299 E0.06119
G1 X137.665 Y116.750 E0.06119
G1 X137.794 Y115.201 E0.06119
G1 X138.175 Y113.694 E0.06119
G1 X138.800 Y112.271 E0.06119
G1 X139.601 Y111.045 E0.05766
M204 S1000
G1 X139.482 Y110.624 F2700.000
;WIPE_START
G1 F2160.000
G1 X140.566 Y109.976 E-1.33000
;WIPE_END
G1 E-0.07000 F2100.000
G1 Z0.460 F2700.000
G1 X143.149 Y102.003
G1 Z0.260
G1 E1.40000 F2100.000
M204 S800
;TYPE:Perimeter
G1 F900.000
G1 X141.729 Y101.235 E0.06357
G1 X140.455 Y100.243 E0.06357
G1 X139.361 Y99.055 E0.06357
G1 X138.478 Y97.703 E0.06357
G1 X137.830 Y96.225 E0.06357
G1 X137.433 Y94.659 E0.06357
G1 X137.300 Y93.050 E0.06357
G1 X137.433 Y91.441 E0.06357
G1 X137.830 Y89.875 E0.06357
G1 X138.478 Y88.397 E0.06357
G1 X139.361 Y87.045 E0.06357
G1 X140.455 Y85.857 E0.06357
G1 X141.729 Y84.865 E0.06357
G1 X143.149 Y84.097 E0.06357
G1 X144.677 Y83.572 E0.06357
G1 X146.269 Y83.307 E0.06357
G1 X147.884 Y83.307 E0.06357
G1 X149.477 Y83.572 E0.06357
G1 X151.004 Y84.097 E0.06357
G1 X152.424 Y84.865 E0.06357
G1 X153.698 Y85.857 E0.06357
G1 X154.792 Y87.045 E0.06357
G1 X155.675 Y88.397 E0.06357
G1 X156.324 Y89.875 E0.06357
G1 X156.720 Y91.441 E0.06357
G1 X156.854 Y93.050 E0.06357
G1 X156.720 Y94.659 E0.06357
G1 X156.324 Y96.225 E0.06357
G1 X155.675 Y97.703 E0.06357
G1 X154.792 Y99.055 E0.06357
G1 X153.698 Y100.243 E0.06357
G1 X152.424 Y101.235 E0.06357
G1 X151.004 Y102.003 E0.06357
G1 X149.477 Y102.528 E0.06357
G1 X147.884 Y102.793 E0.06357
G1 X146.269 Y102.793 E0.06357
G1 X144.677 Y102.528 E0.06357
G1 X143.206 Y102.023 E0.06121
M204 S1000
G1 X143.324 Y101.678 F2700.000
M204 S800
;TYPE:External perimeter
G1 F900.000
G1 X141.929 Y100.929 E0.06235
G1 X140.703 Y99.974 E0.06119
G1 X139.650 Y98.831 E0.06119
G1 X138.800 Y97.529 E0.06119
G1 X138.175 Y96.106 E0.06119
G1 X137.794 Y94.599 E0.06119
G1 X137.750 Y94.071 E0.02084
G1 X137.665 Y93.050 E0.04035
G1 X137.794 Y91.501 E0.06119
G1 X138.175 Y89.994 E0.06119
G1 X138.800 Y88.571 E0.06119
G1 X139.650 Y87.269 E0.06119
G1 X140.703 Y86.126 E0.06119
G1 X141.929 Y85.171 E0.06119
G1 X143.296 Y84.431 E0.06119
G1 X144.766 Y83.927 E0.06119
G1 X146.300 Y83.671 E0.06119
G1 X147.854 Y83.671 E0.06119
G1 X149.387 Y83.927 E0.06119
G1 X150.857 Y84.431 E0.06119
G1 X152.224 Y85.171 E0.06119
G1 X153.451 Y86.126 E0.06119
G1 X154.504 Y87.269 E0.06119
G1 X155.354 Y88.571 E0.06119
G1 X155.978 Y89.994 E0.06119
G1 X156.360 Y91.501 E0.06119
G1 X156.488 Y93.050 E0.06119
G1 X156.360 Y94.599 E0.06119
G1 X155.978 Y96.106 E0.06119
G1 X155.354 Y97.529 E0.06119
G1 X154.504 Y98.831 E0.06119
G1 X153.451 Y99.974 E0.06119
G1 X152.224 Y100.929 E0.06119
G1 X150.857 Y101.669 E0.06119
G1 X149.387 Y102.173 E0.06119
G1 X147.854 Y102.429 E0.06119
G1 X146.300 Y102.429 E0.06119
G1 X144.766 Y102.173 E0.06119
G1 X143.381 Y101.698 E0.05766
M204 S1000
G1 X143.003 Y101.916 F2700.000
;WIPE_START
G1 F2160.000
G1 X142.109 Y101.024 E-1.33000
;WIPE_END
G1 E-0.07000 F2100.000
G1 Z0.460 F2700.000
G1 X146.269 Y79.093
G1 Z0.260
G1 E1.40000 F2100.000
M204 S800
;TYPE:Perimeter
G1 F900.000
G1 X144.677 Y78.828 E0.06357
G1 X143.149 Y78.303 E0.06357
G1 X141.729 Y77.535 E0.06357
G1 X140.455 Y76.543 E0.06357
G1 X139.361 Y75.355 E0.06357
G1 X138.478 Y74.003 E0.06357
G1 X137.830 Y72.525 E0.06357
G1 X137.433 Y70.959 E0.06357
G1 X137.300 Y69.350 E0.06357
G1 X137.433 Y67.741 E0.06357
G1 X137.830 Y66.175 E0.06357
G1 X138.478 Y64.697 E0.06357
G1 X139.361 Y63.345 E0.06357
G1 X140.455 Y62.157 E0.06357
G1 X141.729 Y61.165 E0.06357
G1 X143.149 Y60.397 E0.06357
G1 X144.677 Y59.872 E0.06357
G1 X146.269 Y59.607 E0.06357
G1 X147.884 Y59.607 E0.06357
G1 X149.477 Y59.872 E0.06357
G1 X151.004 Y60.397 E0.06357
G1 X152.424 Y61.165 E0.06357
G1 X153.698 Y62.157 E0.06357
G1 X154.792 Y63.345 E0.06357
G1 X155.675 Y64.697 E0.06357
G1 X156.324 Y66.175 E0.06357
G1 X156.720 Y67.741 E0.06357
G1 X156.854 Y69.350 E0.06357
G1 X156.720 Y70.959 E0.06357
G1 X156.324 Y72.525 E0.06357
G1 X155.675 Y74.003 E0.06357
G1 X154.792 Y75.355 E0.06357
G1 X153.698 Y76.543 E0.06357
G1 X152.424 Y77.535 E0.06357
G1 X151.004 Y78.303 E0.06357
G1 X149.477 Y78.828 E0.06357
G1 X147.884 Y79.093 E0.06357
G1 X146.329 Y79.093 E0.06121
M204 S1000
G1 X146.329 Y78.729 F2700.000
M204 S800
;TYPE:External perimeter
G1 F900.000
G1 X144.766 Y78.473 E0.06235
G1 X143.296 Y77.969 E0.06119
G1 X141.929 Y77.229 E0.06119
G1 X140.703 Y76.274 E0.06119
G1 X139.650 Y75.131 E0.06119
G1 X138.800 Y73.829 E0.06119
G1 X138.175 Y72.406 E0.06119
G1 X137.794 Y70.899 E0.06119
G1 X137.665 Y69.350 E0.06119
G1 X137.794 Y67.801 E0.06119
G1 X138.175 Y66.294 E0.06119
G1 X138.800 Y64.871 E0.06119
G1 X139.650 Y63.569 E0.06119
G1 X140.703 Y62.426 E0.06119
G1 X141.929 Y61.471 E0.06119
G1 X143.296 Y60.731 E0.06119
G1 X144.766 Y60.227 E0.06119
G1 X146.300 Y59.971 E0.06119
G1 X147.854 Y59.971 E0.06119
G1 X149.387 Y60.227 E0.06119
G1 X150.857 Y60.731 E0.06119
G1 X152.224 Y61.471 E0.06119
G1 X153.451 Y62.426 E0.06119
G1 X154.504 Y63.569 E0.06119
G1 X155.354 Y64.871 E0.06119
G1 X155.978 Y66.294 E0.06119
G1 X156.360 Y67.801 E0.06119
G1 X156.488 Y69.350 E0.06119
G1 X156.360 Y70.899 E0.06119
G1 X155.978 Y72.406 E0.06119
G1 X155.354 Y73.829 E0.06119
G1 X154.504 Y75.131 E0.06119
G1 X153.451 Y76.274 E0.06119
G1 X152.224 Y77.229 E0.06119
G1 X150.857 Y77.969 E0.06119
G1 X149.387 Y78.473 E0.06119
G1 X147.854 Y78.729 E0.06119
G1 X146.389 Y78.729 E0.05766
M204 S1000
G1 X146.102 Y79.059 F2700.000
;WIPE_START
G1 F2160.000
G1 X144.967 Y78.505 E-1.33000
;WIPE_END
G1 E-0.07000 F2100.000
G1 Z0.460 F2700.000
G1 X146.389 Y55.393
G1 Z0.260
G1 E1.40000 F2100.000
M204 S800
;TYPE:Perimeter
G1 F900.000
G1 X146.269 Y55.393 E0.00472
G1 X144.677 Y55.128 E0.06357
G1 X143.149 Y54.603 E0.06357
G1 X141.729 Y53.835 E0.06357
G1 X140.455 Y52.843 E0.06357
G1 X139.361 Y51.655 E0.06357
G1 X138.478 Y50.303 E0.06357
G1 X137.830 Y48.825 E0.06357
G1 X137.433 Y47.259 E0.06357
G1 X137.300 Y45.650 E0.06357
G1 X137.433 Y44.041 E0.06357
G1 X137.830 Y42.475 E0.06357
G1 X138.478 Y40.997 E0.06357
G1 X139.361 Y39.645 E0.06357
G1 X140.455 Y38.457 E0.06357
G1 X141.729 Y37.465 E0.06357
G1 X143.149 Y36.697 E0.06357
G1 X144.677 Y36.172 E0.06357
G1 X146.269 Y35.907 E0.06357
G1 X147.884 Y35.907 E0.06357
G1 X149.477 Y36.172 E0.06357
G1 X151.004 Y36.697 E0.06357
G1 X152.424 Y37.465 E0.06357
G1 X153.698 Y38.457 E0.06357
G1 X154.792 Y39.645 E0.06357
G1 X155.675 Y40.997 E0.06357
G1 X156.324 Y42.475 E0.06357
G1 X156.720 Y44.041 E0.06357
G1 X156.854 Y45.650 E0.06357
G1 X156.720 Y47.259 E0.06357
G1 X156.324 Y48.825 E0.06357
G1 X155.675 Y50.303 E0.06357
G1 X154.792 Y51.655 E0.06357
G1 X153.698 Y52.843 E0.06357
G1 X152.424 Y53.835 E0.06357
G1 X151.004 Y54.603 E0.06357
G1 X149.477 Y55.128 E0.06357
G1 X147.884 Y55.393 E0.06357
G1 X146.449 Y55.393 E0.05648
M204 S1000
G1 X146.449 Y55.029 F2700.000
M204 S800
;TYPE:External perimeter
G1 F900.000
G1 X146.300 Y55.029 E0.00590
G1 X144.766 Y54.773 E0.06119
G1 X143.296 Y54.269 E0.06119
G1 X141.929 Y53.529 E0.06119
G1 X140.703 Y52.574 E0.06119
G1 X139.650 Y51.431 E0.06119
G1 X138.800 Y50.129 E0.06119
G1 X138.175 Y48.706 E0.06119
G1 X137.794 Y47.199 E0.06119
G1 X137.665 Y45.650 E0.06119
G1 X137.794 Y44.101 E0.06119
G1 X138.175 Y42.594 E0.06119
G1 X138.800 Y41.171 E0.06119
G1 X139.650 Y39.869 E0.06119
G1 X140.703 Y38.726 E0.06119
G1 X141.929 Y37.771 E0.06119
G1 X143.296 Y37.031 E0.06119
G1 X144.766 Y36.527 E0.06119
G1 X146.300 Y36.271 E0.06119
G1 X147.854 Y36.271 E0.06119
G1 X149.387 Y36.527 E0.06119
G1 X150.857 Y37.031 E0.06119
G1 X152.224 Y37.771 E0.06119
G1 X153.451 Y38.726 E0.06119
G1 X154.504 Y39.869 E0.06119
G1 X155.354 Y41.171 E0.06119
G1 X155.978 Y42.594 E0.06119
G1 X156.360 Y44.101 E0.06119
G1 X156.488 Y45.650 E0.06119
G1 X156.360 Y47.199 E0.06119
G1 X155.978 Y48.706 E0.06119
G1 X155.354 Y50.129 E0.06119
G1 X154.504 Y51.431 E0.06119
G1 X153.451 Y52.574 E0.06119
G1 X152.224 Y53.529 E0.06119
G1 X150.857 Y54.269 E0.06119
G1 X149.387 Y54.773 E0.06119
G1 X147.854 Y55.029 E0.06119
G1 X146.509 Y55.029 E0.05293
M204 S1000
G1 X146.378 Y55.161 F2700.000
;WIPE_START
G1 F2160.000
G1 X146.300 Y55.029 E-0.19379
G1 X145.086 Y54.827 E-1.13621
;WIPE_END
G1 E-0.07000 F2100.000
G1 Z0.460 F2700.000
G1 X137.884 Y99.753
G1 Z0.260
G1 E1.40000 F2100.000
M204 S800
;TYPE:Perimeter
G1 F900.000
G1 X138.884 Y100.168 E0.04263
G1 X139.743 Y100.827 E0.04263
G1 X140.402 Y101.686 E0.04263
G1 X140.817 Y102.686 E0.04263
G1 X140.958 Y103.760 E0.04263
G1 X140.817 Y104.834 E0.04263
G1 X140.402 Y105.834 E0.04263
G1 X139.743 Y106.693 E0.04263
G1 X138.884 Y107.352 E0.04263
G1 X137.884 Y107.767 E0.04263
G1 X136.810 Y107.908 E0.04263
G1 X135.736 Y107.767 E0.04263
G1 X134.736 Y107.352 E0.04263
G1 X133.877 Y106.693 E0.04263
G1 X133.218 Y105.834 E0.04263
G1 X132.803 Y104.834 E0.04263
G1 X132.662 Y103.760 E0.04263
G1 X132.803 Y102.686 E0.04263
G1 X133.218 Y101.686 E0.04263
G1 X133.877 Y100.827 E0.04263
G1 X134.736 Y100.168 E0.04263
G1 X135.736 Y99.753 E0.04263
G1 X136.810 Y99.612 E0.04263
G1 X137.824 Y99.745 E0.04027
M204 S1000
G1 X137.777 Y100.106 F2700.000
M204 S800
G1 F900.000
G1 X138.700 Y100.486 E0.03932
G1 X139.483 Y101.087 E0.03886
G1 X140.084 Y101.870 E0.03886
G1 X140.462 Y102.781 E0.03886
G1 X140.591 Y103.760 E0.03886
G1 X140.462 Y104.739 E0.03886
G1 X140.084 Y105.650 E0.03886
G1 X139.483 Y106.433 E0.03886
G1 X138.700 Y107.034 E0.03886
G1 X137.789 Y107.412 E0.03886
G1 X136.810 Y107.541 E0.03886
G1 X135.831 Y107.412 E0.03886
G1 X134.920 Y107.034 E0.03886
G1 X134.137 Y106.433 E0.03886
G1 X133.536 Y105.650 E0.03886
G1 X133.158 Y104.739 E0.03886
G1 X133.029 Y103.760 E0.03886
G1 X133.158 Y102.781 E0.03886
G1 X133.536 Y101.870 E0.03886
G1 X134.137 Y101.087 E0.03886
G1 X134.920 Y100.486 E0.03886
G1 X135.831 Y100.108 E0.03886
G1 X136.810 Y99.979 E0.03886
G1 X137.717 Y100.099 E0.03602
M204 S1000
G1 X137.670 Y100.460 F2700.000
M204 S800
;TYPE:External perimeter
G1 F900.000
G1 X138.517 Y100.804 E0.03600
G1 X139.224 Y101.346 E0.03508
G1 X139.766 Y102.053 E0.03508
G1 X140.107 Y102.877 E0.03508
G1 X140.224 Y103.760 E0.03508
G1 X140.107 Y104.643 E0.03508
G1 X139.766 Y105.467 E0.03508
G1 X139.224 Y106.174 E0.03508
G1 X138.517 Y106.716 E0.03508
G1 X137.693 Y107.057 E0.03508
G1 X136.810 Y107.174 E0.03508
G1 X135.927 Y107.057 E0.03508
G1 X135.103 Y106.716 E0.03508
G1 X134.396 Y106.174 E0.03508
G1 X133.854 Y105.467 E0.03508
G1 X133.513 Y104.643 E0.03508
G1 X133.396 Y103.760 E0.03508
G1 X133.513 Y102.877 E0.03508
G1 X133.854 Y102.053 E0.03508
G1 X134.396 Y101.346 E0.03508
G1 X135.103 Y100.804 E0.03508
G1 X135.927 Y100.463 E0.03508
G1 X136.810 Y100.346 E0.03508
G1 X137.610 Y100.452 E0.03177
M204 S1000
G1 X137.951 Y100.175 F2700.000
;WIPE_START
G1 F2160.000
G1 X138.517 Y100.804 E-0.89830
G1 X138.888 Y101.088 E-0.43170
;WIPE_END
G1 E-0.07000 F2100.000
G1 Z0.460 F2700.000
G1 X156.497 Y17.358
G1 Z0.260
G1 E1.40000 F2100.000
M204 S800
;TYPE:Perimeter
G1 F900.000
G1 X156.318 Y16.949 E0.01757
G1 X155.369 Y15.496 E0.06832
G1 X154.194 Y14.219 E0.06832
G1 X152.824 Y13.153 E0.06832
G1 X151.298 Y12.327 E0.06832
G1 X149.656 Y11.764 E0.06832
M73 P1 R87
M73 Q1 S87
G1 X149.290 Y11.703 E0.01463
G1 X156.497 Y11.703 E0.28376
G1 X156.497 Y17.298 E0.22027
M204 S1000
;WIPE_START
G1 F2160.000
G1 X156.318 Y16.949 E-0.36218
G1 X155.745 Y16.072 E-0.96782
;WIPE_END
G1 E-0.07000 F2100.000
G1 Z0.460 F2700.000
M73 P1 R86
G1 X135.081 Y20.281
G1 Z0.260
G1 E1.40000 F2100.000
M204 S800
G1 F900.000
G1 X135.219 Y21.950 E0.06595
G1 X135.081 Y23.619 E0.06595
G1 X134.670 Y25.243 E0.06595
G1 X133.997 Y26.777 E0.06595
G1 X133.081 Y28.180 E0.06595
G1 X131.946 Y29.412 E0.06595
G1 X130.624 Y30.441 E0.06595
G1 X129.151 Y31.238 E0.06595
G1 X127.567 Y31.782 E0.06595
G1 X125.914 Y32.058 E0.06595
M73 Q1 S86
G1 X124.239 Y32.058 E0.06595
G1 X122.587 Y31.782 E0.06595
G1 X121.003 Y31.238 E0.06595
G1 X119.529 Y30.441 E0.06595
G1 X118.208 Y29.412 E0.06595
G1 X117.073 Y28.180 E0.06595
G1 X116.157 Y26.777 E0.06595
G1 X115.484 Y25.243 E0.06595
G1 X115.073 Y23.619 E0.06595
