; generated by PrusaSlicer 2.3.1+x64 on 2023-09-03 at 11:58:35 UTC

; 

; external perimeters extrusion width = 0.45mm
; perimeters extrusion width = 0.45mm
; infill extrusion width = 0.45mm
; solid infill extrusion width = 0.45mm
; top infill extrusion width = 0.40mm
; first layer extrusion width = 0.42mm

M73 P0 R20
M73 Q0 S20
M201 X1000 Y1000 Z200 E5000 ; sets maximum accelerations, mm/sec^2
M203 X200 Y200 Z12 E120 ; sets maximum feedrates, mm/sec
M204 P1250 R1250 T1250 ; sets acceleration (P, T) and retract acceleration (R), mm/sec^2
M205 X8.00 Y8.00 Z0.40 E4.50 ; sets the jerk limits, mm/sec
M205 S0 T0 ; sets the minimum extruding and travel feed rate, mm/sec
M107
;TYPE:Custom
M862.3 P "MK3S" ; printer model check
M862.1 P0.4 ; nozzle diameter check
M115 U3.9.3 ; tell printer latest fw version
G90 ; use absolute coordinates
M83 ; extruder relative mode
M104 S160 ; set initial no ooze extruder temp
M140 S85 ; set bed temp
M190 S85 ; wait for bed temp
M109 S160 ; wait for initial no ooze extruder temp
G28 W ; home all without mesh bed level
G80 ; mesh bed leveling
G1 Y-3.0 F1000.0 ; go outside print area
M104 S240 ; set final extruder temp
M109 S240 ; wait for final extruder temp
G92 E0.0
G1 X60.0 E9.0 F1000.0 ; intro line
G1 X100.0 E12.5 F1000.0 ; intro line
G92 E0.0
M221 S95

; Don't change E values below. Excessive value can damage the printer.
M907 E430 ; set extruder motor current
G21 ; set units to millimeters
G90 ; use absolute coordinates
M83 ; use relative distances for extrusion
M900 K0.08 ; Filament gcode LA 1.5
M900 K45 ; Filament gcode LA 1.0
;LAYER_CHANGE
;Z:0.26
;HEIGHT:0.26
;BEFORE_LAYER_CHANGE
G92 E0.0
;0.26


G1 E-1.40000 F2100.000
G1 Z0.200 F2700.000
G1 Z0.260
;AFTER_LAYER_CHANGE
;0.26
; printing object Body1.stl id:0 copy 0
G1 Z0.460
G1 X125.410 Y98.274
G1 Z0.260
G1 E1.40000 F2100.000
M204 S800
;TYPE:Perimeter
;WIDTH:0.42
G1 F900.000
G1 X127.226 Y98.274 E0.07148
G1 X127.226 Y100.090 E0.07147
G1 X127.182 Y99.845 E0.00980
G1 X126.973 Y99.365 E0.02059
G1 X126.791 Y99.095 E0.01282
G1 X126.452 Y98.747 E0.01913
G1 X126.188 Y98.559 E0.01275
G1 X125.736 Y98.344 E0.01972
G1 X125.469 Y98.287 E0.01075
M204 S1000
G1 X125.618 Y98.691 F2700.000
M204 S800
;TYPE:External perimeter
G1 F900.000
G1 X126.003 Y98.874 E0.01678
G1 X126.214 Y99.024 E0.01019
G1 X126.507 Y99.326 E0.01657
G1 X126.653 Y99.541 E0.01022
G1 X126.831 Y99.951 E0.01759
G1 X126.906 Y100.371 E0.01679
G1 X126.906 Y100.629 E0.01019
G1 X126.831 Y101.049 E0.01679
G1 X126.653 Y101.459 E0.01759
G1 X126.507 Y101.674 E0.01022
G1 X126.210 Y101.980 E0.01679
G1 X125.833 Y102.220 E0.01760
G1 X125.592 Y102.316 E0.01021
G1 X125.180 Y102.402 E0.01657
G1 X124.921 Y102.409 E0.01019
G1 X124.500 Y102.345 E0.01678
G1 X124.085 Y102.178 E0.01761
G1 X123.867 Y102.038 E0.01021
G1 X123.552 Y101.749 E0.01683
G1 X123.302 Y101.378 E0.01760
G1 X123.200 Y101.140 E0.01018
G1 X123.102 Y100.726 E0.01677
G1 X123.102 Y100.274 E0.01779
G1 X123.200 Y99.860 E0.01677
G1 X123.302 Y99.622 E0.01018
G1 X123.552 Y99.251 E0.01760
G1 X123.867 Y98.962 E0.01683
G1 X124.085 Y98.822 E0.01021
G1 X124.500 Y98.655 E0.01761
G1 X124.921 Y98.591 E0.01678
G1 X125.181 Y98.598 E0.01021
G1 X125.559 Y98.679 E0.01524
M204 S1000
G1 X125.923 Y98.432 F2700.000
;WIPE_START
G1 F2160.000
G1 X126.003 Y98.874 E-0.44785
G1 X126.214 Y99.024 E-0.23915
G1 X126.507 Y99.326 E-0.38870
G1 X126.653 Y99.541 E-0.23969
G1 X126.659 Y99.556 E-0.01461
;WIPE_END
G1 E-0.07000 F2100.000
G1 Z0.460 F2700.000
G1 X124.582 Y98.274
G1 Z0.260
G1 E1.40000 F2100.000
M204 S800
;TYPE:Perimeter
G1 F900.000
G1 X124.403 Y98.301 E0.00711
G1 X123.917 Y98.497 E0.02063
G1 X123.644 Y98.673 E0.01280
G1 X123.274 Y99.012 E0.01976
G1 X122.981 Y99.447 E0.02064
G1 X122.853 Y99.745 E0.01276
G1 X122.774 Y100.077 E0.01345
G1 X122.774 Y98.274 E0.07097
G1 X124.522 Y98.274 E0.06881
M204 S1000
;WIPE_START
G1 F2160.000
G1 X124.403 Y98.301 E-0.11221
G1 X123.917 Y98.497 E-0.48408
G1 X123.644 Y98.673 E-0.30034
G1 X123.298 Y98.990 E-0.43337
;WIPE_END
G1 E-0.07000 F2100.000
G1 Z0.460 F2700.000
G1 X123.503 Y103.102
G1 Z0.260
G1 E1.40000 F2100.000
M204 S800
G1 F900.000
G1 X123.582 Y103.153 E0.00370
G1 X124.210 Y103.406 E0.02669
G1 X124.853 Y103.503 E0.02557
G1 X125.307 Y103.492 E0.01787
G1 X125.910 Y103.366 E0.02426
G1 X126.334 Y103.196 E0.01800
G1 X126.497 Y103.092 E0.00762
G1 X126.497 Y110.997 E0.31122
G1 X123.503 Y110.997 E0.11790
M73 P1 R20
M73 Q1 S20
G1 X123.503 Y103.162 E0.30846
M204 S1000
G1 X123.138 Y102.358 F2700.000
M204 S800
G1 F900.000
G1 X123.420 Y102.617 E0.01508
G1 X123.750 Y102.828 E0.01539
G1 X124.307 Y103.053 E0.02366
G1 X124.876 Y103.138 E0.02264
G1 X125.264 Y103.129 E0.01531
G1 X125.804 Y103.016 E0.02170
G1 X126.167 Y102.871 E0.01540
G1 X126.673 Y102.548 E0.02362
G1 X126.862 Y102.355 E0.01064
G1 X126.862 Y111.362 E0.35460
G1 X123.138 Y111.362 E0.14658
G1 X123.138 Y102.418 E0.35211
M204 S1000
;WIPE_START
G1 F2160.000
G1 X123.420 Y102.617 E-0.31894
G1 X123.750 Y102.828 E-0.36111
G1 X124.307 Y103.053 E-0.55508
G1 X124.408 Y103.068 E-0.09487
;WIPE_END
G1 E-0.07000 F2100.000
G1 Z0.460 F2700.000
G1 X122.774 Y100.923
G1 Z0.260
G1 E1.40000 F2100.000
M204 S800
G1 F900.000
G1 X122.853 Y101.255 E0.01345
G1 X122.981 Y101.553 E0.01276
G1 X123.274 Y101.988 E0.02064
G1 X123.644 Y102.327 E0.01976
G1 X123.917 Y102.503 E0.01280
G1 X124.403 Y102.699 E0.02063
G1 X124.899 Y102.774 E0.01971
G1 X125.222 Y102.766 E0.01275
G1 X125.698 Y102.666 E0.01913
G1 X126.000 Y102.545 E0.01281
G1 X126.442 Y102.264 E0.02061
G1 X126.791 Y101.905 E0.01973
G1 X126.973 Y101.635 E0.01282
G1 X127.182 Y101.155 E0.02059
G1 X127.226 Y100.910 E0.00980
G1 X127.226 Y111.726 E0.42579
G1 X122.774 Y111.726 E0.17525
G1 X122.774 Y100.983 E0.42293
M204 S1000
;WIPE_START
G1 F2160.000
G1 X122.853 Y101.255 E-0.26187
G1 X122.981 Y101.553 E-0.29932
G1 X123.274 Y101.988 E-0.48413
G1 X123.501 Y102.196 E-0.28468
;WIPE_END
G1 E-0.07000 F2100.000
G1 Z0.460 F2700.000
G1 X122.410 Y97.910
G1 Z0.260
G1 E1.40000 F2100.000
M204 S800
;TYPE:External perimeter
G1 F900.000
G1 X127.590 Y97.910 E0.20393
G1 X127.590 Y112.090 E0.55825
G1 X122.410 Y112.090 E0.20393
G1 X122.410 Y97.970 E0.55589
M204 S1000
G1 X122.777 Y98.068 F2700.000
;WIPE_START
G1 F2160.000
G1 X123.850 Y97.953 E-1.33000
;WIPE_END
G1 E-0.07000 F2100.000
G1 Z0.460 F2700.000
G1 X126.388 Y104.031
G1 Z0.260
G1 E1.40000 F2100.000
M204 S800
;TYPE:Solid infill
;WIDTH:0.425395
G1 F900.000
G1 X125.986 Y103.629 E0.02271
G1 X125.554 Y103.720 E0.01764
G1 X126.224 Y104.390 E0.03787
G1 X126.224 Y104.913 E0.02088
G1 X125.083 Y103.771 E0.06450
G1 X124.836 Y103.777 E0.00988
G1 X124.518 Y103.729 E0.01283
G1 X126.224 Y105.435 E0.09640
G1 X126.224 Y105.958 E0.02088
G1 X123.776 Y103.526 E0.13788
G1 X123.776 Y104.032 E0.02023
G1 X126.224 Y106.481 E0.13834
G1 X126.224 Y107.003 E0.02088
G1 X123.776 Y104.555 E0.13834
G1 X123.776 Y105.078 E0.02088
G1 X126.224 Y107.526 E0.13834
G1 X126.224 Y108.049 E0.02088
G1 X123.776 Y105.600 E0.13834
G1 X123.776 Y106.123 E0.02088
G1 X126.224 Y108.571 E0.13834
G1 X126.224 Y109.094 E0.02088
G1 X123.776 Y106.646 E0.13834
G1 X123.776 Y107.168 E0.02088
G1 X126.224 Y109.617 E0.13834
G1 X126.224 Y110.139 E0.02088
G1 X123.776 Y107.691 E0.13834
G1 X123.776 Y108.214 E0.02088
G1 X126.224 Y110.662 E0.13834
G1 X126.224 Y110.724 E0.00248
G1 X125.764 Y110.724 E0.01840
G1 X123.776 Y108.736 E0.11232
G1 X123.776 Y109.259 E0.02088
G1 X125.241 Y110.724 E0.08278
G1 X124.718 Y110.724 E0.02088
G1 X123.776 Y109.782 E0.05325
G1 X123.776 Y110.304 E0.02088
G1 X124.359 Y110.888 E0.03298
M204 S1000
; stop printing object Body1.stl id:0 copy 0
; printing object Body1.stl id:0 copy 1
;WIPE_START
G1 F2160.000
G1 X123.776 Y110.304 E-0.76239
G1 X123.776 Y109.782 E-0.48276
M73 P2 R20
G1 X123.841 Y109.847 E-0.08484
;WIPE_END
M73 Q2 S20
G1 E-0.07000 F2100.000
G1 Z0.460 F2700.000
G1 X137.910 Y110.774
G1 Z0.260
G1 E1.40000 F2100.000
M204 S800
;TYPE:Perimeter
;WIDTH:0.42
G1 F900.000
G1 X139.726 Y110.774 E0.07148
G1 X139.726 Y112.590 E0.07147
G1 X139.682 Y112.345 E0.00980
G1 X139.473 Y111.865 E0.02059
G1 X139.291 Y111.595 E0.01282
G1 X138.952 Y111.247 E0.01913
G1 X138.688 Y111.059 E0.01275
G1 X138.236 Y110.844 E0.01972
G1 X137.969 Y110.787 E0.01075
M204 S1000
G1 X138.118 Y111.191 F2700.000
M204 S800
;TYPE:External perimeter
G1 F900.000
G1 X138.503 Y111.374 E0.01678
G1 X138.714 Y111.524 E0.01019
G1 X139.007 Y111.826 E0.01657
G1 X139.153 Y112.041 E0.01022
G1 X139.331 Y112.451 E0.01759
G1 X139.406 Y112.871 E0.01679
G1 X139.406 Y113.129 E0.01019
G1 X139.331 Y113.549 E0.01679
G1 X139.153 Y113.959 E0.01759
G1 X139.007 Y114.174 E0.01022
G1 X138.710 Y114.480 E0.01679
G1 X138.333 Y114.720 E0.01760
G1 X138.092 Y114.816 E0.01021
G1 X137.680 Y114.902 E0.01657
G1 X137.421 Y114.909 E0.01019
G1 X137.000 Y114.845 E0.01678
G1 X136.585 Y114.678 E0.01761
G1 X136.367 Y114.538 E0.01021
G1 X136.052 Y114.249 E0.01683
G1 X135.802 Y113.878 E0.01760
G1 X135.700 Y113.640 E0.01018
G1 X135.602 Y113.226 E0.01677
G1 X135.602 Y112.774 E0.01779
G1 X135.700 Y112.360 E0.01677
G1 X135.802 Y112.122 E0.01018
G1 X136.052 Y111.751 E0.01760
G1 X136.367 Y111.462 E0.01683
G1 X136.585 Y111.322 E0.01021
G1 X137.000 Y111.155 E0.01761
G1 X137.421 Y111.091 E0.01678
G1 X137.681 Y111.098 E0.01021
G1 X138.059 Y111.179 E0.01524
M204 S1000
G1 X138.423 Y110.932 F2700.000
;WIPE_START
G1 F2160.000
G1 X138.503 Y111.374 E-0.44785
G1 X138.714 Y111.524 E-0.23915
G1 X139.007 Y111.826 E-0.38870
G1 X139.153 Y112.041 E-0.23969
G1 X139.159 Y112.056 E-0.01461
;WIPE_END
G1 E-0.07000 F2100.000
G1 Z0.460 F2700.000
G1 X137.082 Y110.774
G1 Z0.260
G1 E1.40000 F2100.000
M204 S800
;TYPE:Perimeter
G1 F900.000
G1 X136.903 Y110.801 E0.00711
G1 X136.417 Y110.997 E0.02063
G1 X136.144 Y111.173 E0.01280
G1 X135.774 Y111.512 E0.01976
G1 X135.481 Y111.947 E0.02064
G1 X135.353 Y112.245 E0.01276
G1 X135.274 Y112.577 E0.01345
G1 X135.274 Y110.774 E0.07097
G1 X137.022 Y110.774 E0.06881
M204 S1000
;WIPE_START
G1 F2160.000
G1 X136.903 Y110.801 E-0.11221
G1 X136.417 Y110.997 E-0.48408
G1 X136.144 Y111.173 E-0.30034
G1 X135.798 Y111.490 E-0.43337
;WIPE_END
G1 E-0.07000 F2100.000
G1 Z0.460 F2700.000
G1 X136.003 Y115.602
G1 Z0.260
G1 E1.40000 F2100.000
M204 S800
G1 F900.000
G1 X136.082 Y115.653 E0.00370
G1 X136.710 Y115.906 E0.02669
G1 X137.353 Y116.003 E0.02557
G1 X137.807 Y115.992 E0.01787
G1 X138.410 Y115.866 E0.02426
G1 X138.834 Y115.696 E0.01800
G1 X138.997 Y115.592 E0.00762
G1 X138.997 Y123.497 E0.31122
G1 X136.003 Y123.497 E0.11790
G1 X136.003 Y115.662 E0.30846
M204 S1000
G1 X135.638 Y114.858 F2700.000
M204 S800
G1 F900.000
G1 X135.920 Y115.117 E0.01508
G1 X136.250 Y115.328 E0.01539
G1 X136.807 Y115.553 E0.02366
G1 X137.376 Y115.638 E0.02264
G1 X137.764 Y115.629 E0.01531
G1 X138.304 Y115.516 E0.02170
G1 X138.667 Y115.371 E0.01540
G1 X139.173 Y115.048 E0.02362
G1 X139.362 Y114.855 E0.01064
G1 X139.362 Y123.862 E0.35460
G1 X135.638 Y123.862 E0.14658
G1 X135.638 Y114.918 E0.35211
M204 S1000
;WIPE_START
G1 F2160.000
G1 X135.920 Y115.117 E-0.31894
G1 X136.250 Y115.328 E-0.36111
G1 X136.807 Y115.553 E-0.55508
G1 X136.908 Y115.568 E-0.09487
;WIPE_END
G1 E-0.07000 F2100.000
G1 Z0.460 F2700.000
G1 X135.274 Y113.423
G1 Z0.260
G1 E1.40000 F2100.000
M204 S800
G1 F900.000
G1 X135.353 Y113.755 E0.01345
G1 X135.481 Y114.053 E0.01276
G1 X135.774 Y114.488 E0.02064
G1 X136.144 Y114.827 E0.01976
G1 X136.417 Y115.003 E0.01280
G1 X136.903 Y115.199 E0.02063
G1 X137.399 Y115.274 E0.01971
G1 X137.722 Y115.266 E0.01275
G1 X138.198 Y115.166 E0.01913
G1 X138.500 Y115.045 E0.01281
G1 X138.942 Y114.764 E0.02061
G1 X139.291 Y114.405 E0.01973
G1 X139.473 Y114.135 E0.01282
G1 X139.682 Y113.655 E0.02059
G1 X139.726 Y113.410 E0.00980
G1 X139.726 Y124.226 E0.42579
G1 X135.274 Y124.226 E0.17525
G1 X135.274 Y113.483 E0.42293
M204 S1000
;WIPE_START
G1 F2160.000
G1 X135.353 Y113.755 E-0.26187
G1 X135.481 Y114.053 E-0.29932
G1 X135.774 Y114.488 E-0.48413
G1 X136.001 Y114.696 E-0.28468
;WIPE_END
G1 E-0.07000 F2100.000
G1 Z0.460 F2700.000
G1 X134.910 Y110.410
G1 Z0.260
G1 E1.40000 F2100.000
M204 S800
;TYPE:External perimeter
G1 F900.000
G1 X140.090 Y110.410 E0.20393
G1 X140.090 Y124.590 E0.55825
G1 X134.910 Y124.590 E0.20393
G1 X134.910 Y110.470 E0.55589
M204 S1000
G1 X135.277 Y110.568 F2700.000
;WIPE_START
G1 F2160.000
G1 X136.350 Y110.453 E-1.33000
;WIPE_END
G1 E-0.07000 F2100.000
G1 Z0.460 F2700.000
G1 X138.888 Y116.531
G1 Z0.260
G1 E1.40000 F2100.000
M204 S800
;TYPE:Solid infill
;WIDTH:0.425395
M73 P3 R20
G1 F900.000
G1 X138.486 Y116.129 E0.02271
M73 Q3 S20
G1 X138.054 Y116.220 E0.01764
G1 X138.724 Y116.890 E0.03787
G1 X138.724 Y117.413 E0.02088
G1 X137.583 Y116.271 E0.06450
G1 X137.336 Y116.277 E0.00988
G1 X137.018 Y116.229 E0.01283
G1 X138.724 Y117.935 E0.09640
G1 X138.724 Y118.458 E0.02088
G1 X136.276 Y116.026 E0.13788
G1 X136.276 Y116.532 E0.02023
G1 X138.724 Y118.981 E0.13834
G1 X138.724 Y119.503 E0.02088
G1 X136.276 Y117.055 E0.13834
G1 X136.276 Y117.578 E0.02088
G1 X138.724 Y120.026 E0.13834
G1 X138.724 Y120.549 E0.02088
G1 X136.276 Y118.100 E0.13834
G1 X136.276 Y118.623 E0.02088
G1 X138.724 Y121.071 E0.13834
G1 X138.724 Y121.594 E0.02088
G1 X136.276 Y119.146 E0.13834
G1 X136.276 Y119.668 E0.02088
G1 X138.724 Y122.117 E0.13834
G1 X138.724 Y122.639 E0.02088
G1 X136.276 Y120.191 E0.13834
G1 X136.276 Y120.714 E0.02088
G1 X138.724 Y123.162 E0.13834
G1 X138.724 Y123.224 E0.00248
G1 X138.264 Y123.224 E0.01840
G1 X136.276 Y121.236 E0.11232
G1 X136.276 Y121.759 E0.02088
G1 X137.741 Y123.224 E0.08278
G1 X137.218 Y123.224 E0.02088
G1 X136.276 Y122.282 E0.05325
G1 X136.276 Y122.804 E0.02088
G1 X136.859 Y123.388 E0.03298
M204 S1000
; stop printing object Body1.stl id:0 copy 1
; printing object Body1.stl id:0 copy 2
;WIPE_START
G1 F2160.000
G1 X136.276 Y122.804 E-0.76239
G1 X136.276 Y122.282 E-0.48276
G1 X136.341 Y122.347 E-0.08484
;WIPE_END
G1 E-0.07000 F2100.000
G1 Z0.460 F2700.000
G1 X150.410 Y123.274
G1 Z0.260
G1 E1.40000 F2100.000
M204 S800
;TYPE:Perimeter
;WIDTH:0.42
G1 F900.000
G1 X152.226 Y123.274 E0.07148
G1 X152.226 Y125.090 E0.07147
G1 X152.182 Y124.845 E0.00980
G1 X151.973 Y124.365 E0.02059
G1 X151.791 Y124.095 E0.01282
G1 X151.452 Y123.747 E0.01913
G1 X151.188 Y123.559 E0.01275
G1 X150.736 Y123.344 E0.01972
G1 X150.469 Y123.287 E0.01075
M204 S1000
G1 X150.618 Y123.691 F2700.000
M204 S800
;TYPE:External perimeter
G1 F900.000
G1 X151.003 Y123.874 E0.01678
G1 X151.214 Y124.024 E0.01019
G1 X151.507 Y124.326 E0.01657
G1 X151.653 Y124.541 E0.01022
G1 X151.831 Y124.951 E0.01759
G1 X151.906 Y125.371 E0.01679
G1 X151.906 Y125.629 E0.01019
G1 X151.831 Y126.049 E0.01679
G1 X151.653 Y126.459 E0.01759
G1 X151.507 Y126.674 E0.01022
G1 X151.210 Y126.980 E0.01679
G1 X150.833 Y127.220 E0.01760
G1 X150.592 Y127.316 E0.01021
G1 X150.180 Y127.402 E0.01657
G1 X149.921 Y127.409 E0.01019
G1 X149.500 Y127.345 E0.01678
G1 X149.085 Y127.178 E0.01761
G1 X148.867 Y127.038 E0.01021
G1 X148.552 Y126.749 E0.01683
G1 X148.302 Y126.378 E0.01760
G1 X148.200 Y126.140 E0.01018
G1 X148.102 Y125.726 E0.01677
G1 X148.102 Y125.274 E0.01779
G1 X148.200 Y124.860 E0.01677
G1 X148.302 Y124.622 E0.01018
G1 X148.552 Y124.251 E0.01760
G1 X148.867 Y123.962 E0.01683
G1 X149.085 Y123.822 E0.01021
G1 X149.500 Y123.655 E0.01761
G1 X149.921 Y123.591 E0.01678
G1 X150.181 Y123.598 E0.01021
G1 X150.559 Y123.679 E0.01524
M204 S1000
G1 X150.923 Y123.432 F2700.000
;WIPE_START
G1 F2160.000
G1 X151.003 Y123.874 E-0.44785
G1 X151.214 Y124.024 E-0.23915
G1 X151.507 Y124.326 E-0.38870
G1 X151.653 Y124.541 E-0.23969
G1 X151.659 Y124.556 E-0.01461
;WIPE_END
G1 E-0.07000 F2100.000
G1 Z0.460 F2700.000
G1 X149.582 Y123.274
G1 Z0.260
G1 E1.40000 F2100.000
M204 S800
;TYPE:Perimeter
G1 F900.000
G1 X149.403 Y123.301 E0.00711
G1 X148.917 Y123.497 E0.02063
G1 X148.644 Y123.673 E0.01280
G1 X148.274 Y124.012 E0.01976
G1 X147.981 Y124.447 E0.02064
G1 X147.853 Y124.745 E0.01276
G1 X147.774 Y125.077 E0.01345
G1 X147.774 Y123.274 E0.07097
G1 X149.522 Y123.274 E0.06881
M204 S1000
;WIPE_START
G1 F2160.000
G1 X149.403 Y123.301 E-0.11221
G1 X148.917 Y123.497 E-0.48408
G1 X148.644 Y123.673 E-0.30034
G1 X148.298 Y123.990 E-0.43337
;WIPE_END
G1 E-0.07000 F2100.000
